!!!COM: Beethoven, Ludwig van
!!!CDT: 1770///-1827///
!!!ODT: 1801///
!!!OTL: String Quintet in C major, Op. 29
!!!OPS: Op. 29
!!!OMV: Mvmt. 1
!!!OMD: Allegro moderato
!!!PDT: 1802///
!!!PPP: Leipzig
!!!ODE: Count Fries
**kern	**dynam	**kern	**dynam	**kern	**dynam	**kern	**dynam	**kern	**dynam
*staff5	*staff5	*staff4	*staff4	*staff3	*staff3	*staff2	*staff2	*staff1	*staff1
*Icello	*Icello	*Iviola	*Iviola	*Iviola	*Iviola	*Ivioln	*Ivioln	*Ivioln	*Ivioln
*clefF4	*clefF4	*clefC3	*clefC3	*clefC3	*clefC3	*clefG2	*clefG2	*clefG2	*clefG2
*k[]	*k[]	*k[]	*k[]	*k[]	*k[]	*k[]	*k[]	*k[]	*k[]
*M2/2	*M2/2	*M2/2	*M2/2	*M2/2	*M2/2	*M2/2	*M2/2	*M2/2	*M2/2
*MM152	*MM152	*MM152	*MM152	*MM152	*MM152	*MM152	*MM152	*MM152	*MM152
*>[I,A,A1,A,B]	*>[I,A,A1,A,B]	*>[I,A,A1,A,B]	*>[I,A,A1,A,B]	*>[I,A,A1,A,B]	*>[I,A,A1,A,B]	*>[I,A,A1,A,B]	*>[I,A,A1,A,B]	*>[I,A,A1,A,B]	*>[I,A,A1,A,B]
*>norep[I,A,B]	*>norep[I,A,B]	*>norep[I,A,B]	*>norep[I,A,B]	*>norep[I,A,B]	*>norep[I,A,B]	*>norep[I,A,B]	*>norep[I,A,B]	*>norep[I,A,B]	*>norep[I,A,B]
=1-	=1-	=1-	=1-	=1-	=1-	=1-	=1-	=1-	=1-
*>I	*>I	*>I	*>I	*>I	*>I	*>I	*>I	*>I	*>I
(2.C/	p	1r	p	(8E/L	p	1r	p	(2.c/	p
.	.	.	.	8G/	.	.	.	.	.
.	.	.	.	8E/	.	.	.	.	.
.	.	.	.	8G/J	.	.	.	.	.
.	.	.	.	8E/L	.	.	.	.	.
.	.	.	.	8G/	.	.	.	.	.
4D/	.	.	.	8F/	.	.	.	4B/	.
.	.	.	.	8G/J)	.	.	.	.	.
=2	=2	=2	=2	=2	=2	=2	=2	=2	=2
4C/	.	1r	.	(8E/L	.	1r	.	4c/	.
.	.	.	.	8G/	.	.	.	.	.
4D/	.	.	.	8F/	.	.	.	4B/	.
.	.	.	.	8G/J	.	.	.	.	.
4C/	.	.	.	8E/L	.	.	.	4c/	.
.	.	.	.	8G/	.	.	.	.	.
4BB/)	.	.	.	8F/	.	.	.	4d/)	.
.	.	.	.	8G/J)	.	.	.	.	.
=3!|:	=3!|:	=3!|:	=3!|:	=3!|:	=3!|:	=3!|:	=3!|:	=3!|:	=3!|:
*>A	*>A	*>A	*>A	*>A	*>A	*>A	*>A	*>A	*>A
(2.C/	.	1r	.	(8E/L	.	1r	.	(2.c/	.
.	.	.	.	8G/	.	.	.	.	.
.	.	.	.	8E/	.	.	.	.	.
.	.	.	.	8G/J	.	.	.	.	.
.	.	.	.	8E/L	.	.	.	.	.
.	.	.	.	8G/	.	.	.	.	.
4D/	.	.	.	8F/	.	.	.	4B/	.
.	.	.	.	8G/J)	.	.	.	.	.
=4	=4	=4	=4	=4	=4	=4	=4	=4	=4
4C/	.	2r	.	(8E/L	.	2r	.	4c/	.
.	.	.	.	8G/	.	.	.	.	.
4D/	.	.	.	8F/	.	.	.	4B/	.
.	.	.	.	8G/J	.	.	.	.	.
4C/	.	4r	.	8E/L	.	4r	.	4c/	.
.	.	.	.	8G/	.	.	.	.	.
4AA/)	.	(4E/	p	8G/	.	[4A/	p	4c#/)	.
.	.	.	.	8A/J)	.	.	.	.	.
=5	=5	=5	=5	=5	=5	=5	=5	=5	=5
(2.D\	.	4F/)	.	(8F/L	.	4A/]	.	(2.d/	.
.	.	.	.	8A/	.	.	.	.	.
.	.	4r	.	8F/	.	4r	.	.	.
.	.	.	.	8A/J	.	.	.	.	.
.	.	2r	.	8F/L	.	2r	.	.	.
.	.	.	.	8A/	.	.	.	.	.
4E\	.	.	.	8G/	.	.	.	4c#/	.
.	.	.	.	8A/J)	.	.	.	.	.
=6	=6	=6	=6	=6	=6	=6	=6	=6	=6
4D\	.	2r	.	(8F/L	.	2r	.	4d/	.
.	.	.	.	8A/	.	.	.	.	.
4E\	.	.	.	8G/	.	.	.	4c#/	.
.	.	.	.	8A/J	.	.	.	.	.
4D\	.	4r	.	8F/L	.	4r	.	4d/	.
.	.	.	.	8A/	.	.	.	.	.
4C/)	.	(4G/	.	8B-/	.	[4c/	.	4e/)	.
.	.	.	.	8c/J)	.	.	.	.	.
=7	=7	=7	=7	=7	=7	=7	=7	=7	=7
(2.F\	.	4A/)	.	(8A/L	.	4c/]	.	(2.f/	.
.	.	.	.	8c/	.	.	.	.	.
.	.	4r	.	8A/	.	4r	.	.	.
.	.	.	.	8c/J	.	.	.	.	.
.	.	2r	.	8A/L	.	2r	.	.	.
.	.	.	.	8c/	.	.	.	.	.
4F#\	.	.	.	8A/)	.	.	.	4e-/	.
.	.	.	.	(8c/J	.	.	.	.	.
=8	=8	=8	=8	=8	=8	=8	=8	=8	=8
2A\	.	1r	.	8d/L)	.	1r	.	2d/	.
.	.	.	.	(8c/	.	.	.	.	.
.	.	.	.	8Bn/	.	.	.	.	.
.	.	.	.	8A/J	.	.	.	.	.
2GG/)	.	.	.	8B/L	.	.	.	2g/)	.
.	.	.	.	8A/	.	.	.	.	.
.	.	.	.	8G/	.	.	.	.	.
.	.	.	.	8F/J	.	.	.	.	.
=9	=9	=9	=9	=9	=9	=9	=9	=9	=9
(2.C/	p	(8E/L	p	8E\L)	p	(2.cc\	p	4c/	p
.	.	8G/	.	(8g\	.	.	.	.	.
.	.	8E/	.	8e\	.	.	.	4r	.
.	.	8G/J	.	8g\J	.	.	.	.	.
.	.	8E/L	.	8e\L	.	.	.	2r	.
.	.	8G/	.	8g\	.	.	.	.	.
4D/	.	8F/	.	8f\	.	4b\	.	.	.
.	.	8G/J)	.	8g\J)	.	.	.	.	.
=10	=10	=10	=10	=10	=10	=10	=10	=10	=10
4C/	.	(8E/L	.	(8e\L	.	4cc\	.	1r	.
.	.	8G/	.	8g\	.	.	.	.	.
4D/	.	8F/	.	8f\	.	4b\	.	.	.
.	.	8G/J	.	8g\J	.	.	.	.	.
4C/	.	8E/L	.	8e\L	.	4cc\	.	.	.
.	.	8G/	.	8g\	.	.	.	.	.
4BB/)	.	8F/	.	8f\	.	4dd\)	.	.	.
.	.	8G/J)	.	8g\J)	.	.	.	.	.
=11	=11	=11	=11	=11	=11	=11	=11	=11	=11
(2.C/	.	(8E/L	.	(8e\L	.	(2.cc\	.	4r	.
.	.	8G/	.	8g\	.	.	.	.	.
.	.	8E/	.	8e\	.	.	.	4gg'\	.
.	.	8G/J	.	8g\J	.	.	.	.	.
.	.	8E/L	.	8e\L	.	.	.	[2gg\	.
.	.	8G/	.	8g\	.	.	.	.	.
4D/	.	8F/	.	8g\	.	4b\	.	.	.
.	.	8G/J)	.	8g\J)	.	.	.	.	.
=12	=12	=12	=12	=12	=12	=12	=12	=12	=12
4C/	.	(8E/L	.	(8e\L	.	4cc\	.	2.gg\]	.
.	.	8G/	.	8g\	.	.	.	.	.
4D/	.	8F/	.	8f\	.	4b\	.	.	.
.	.	8G/J	.	8g\J	.	.	.	.	.
4C/	.	8E/L	.	8e\L	.	4cc\	.	.	.
.	.	8G/	.	8g\	.	.	.	.	.
4AA/)	.	8E/	.	8g\	.	4cc#\)	.	[4aa\	.
.	.	8G/J)	.	8a\J)	.	.	.	.	.
=13	=13	=13	=13	=13	=13	=13	=13	=13	=13
(2.D\	.	(8F/L	.	(8f\L	.	(2.dd\	.	4aa\]	.
.	.	8A/	.	8a\	.	.	.	.	.
.	.	8F/	.	8f\	.	.	.	4aa'\	.
.	.	8A/J	.	8a\J	.	.	.	.	.
.	.	8F/L	.	8f\L	.	.	.	[2aa\	.
.	.	8A/	.	8a\	.	.	.	.	.
4E\	.	8G/	.	8g\	.	4cc#\	.	.	.
.	.	8A/J)	.	8a\J)	.	.	.	.	.
=14	=14	=14	=14	=14	=14	=14	=14	=14	=14
4D\	.	(8F/L	.	(8f\L	.	4dd\	.	2.aa\]	.
.	.	8A/	.	8a\	.	.	.	.	.
4E\	.	8G/	.	8g\	.	4cc#\	.	.	.
.	.	8A/J	.	8a\J	.	.	.	.	.
4D\	.	8F/L	.	8f\L	.	4dd\	.	.	.
.	.	8A/	.	8a\	.	.	.	.	.
4C/)	.	8G/	.	8b-\	.	4ee\)	.	[4ccc\	.
.	.	8B-/J)	.	8g\J)	.	.	.	.	.
=15	=15	=15	=15	=15	=15	=15	=15	=15	=15
4F\	.	(8A/L	.	(8a\L	.	(2.ff\	.	1ccc_	.
.	.	8c/	.	8cc\	.	.	.	.	.
(2FF/	.	8A/	.	8a\	.	.	.	.	.
.	.	8c/J	.	8cc\J	.	.	.	.	.
.	.	8A/L	.	8a\L	.	.	.	.	.
.	.	8c/	.	8cc\	.	.	.	.	.
4FF#/	.	8A/	.	8a\	.	4ee-\	.	.	.
.	.	[8c/J)	.	[8cc\J)	.	.	.	.	.
=16	=16	=16	=16	=16	=16	=16	=16	=16	=16
4GG/)	.	8c/L]	.	8cc\L]	.	2dd\	.	(2ccc\]	.
.	.	(8c/	.	(8cc\	.	.	.	.	.
4GG/	.	8Bn/	.	8bn\	.	.	.	.	.
.	.	8A/J	.	8a\J	.	.	.	.	.
4GG/	.	8G/L	.	8g\L	.	2gg\	.	2bb\	.
.	.	8A/	.	8a\	.	.	.	.	.
4GG/	.	8F/	.	8f\	.	.	.	.	.
.	.	8G/J)	.	8g\J)	.	.	.	.	.
=17	=17	=17	=17	=17	=17	=17	=17	=17	=17
4C'/	p	4E'/	p	4e'\	p	4cc'\)	p	4ccc'\)	p
4r	.	4r	.	4r	.	4r	.	4r	.
2r	.	2r	.	2r	.	4r	.	12c'/L	.
.	.	.	.	.	.	.	.	(12e/	.
.	.	.	.	.	.	.	.	12d/J	.
.	.	.	.	.	.	12c'/L	.	12c'/L)	.
.	.	.	.	.	.	(12e/	.	(12g/	.
.	.	.	.	.	.	12d/J	.	12f/J	.
=18	=18	=18	=18	=18	=18	=18	=18	=18	=18
1r	.	1r	.	1r	.	12c'/L)	.	12e'\L)	.
.	.	.	.	.	.	(12g/	.	(12ee\	.
.	.	.	.	.	.	12f/J	.	12dd\J	.
.	.	.	.	.	.	12e/L)	.	12cc\L)	.
.	.	.	.	.	.	(12ee/	.	(12gg\	.
.	.	.	.	.	.	12dd/J	.	12ff\J	.
.	.	.	.	.	.	12cc'/L)	.	12ee'\L)	.
.	.	.	.	.	.	12b'/	.	&(12dd'\&)	.
.	.	.	.	.	.	12a'/J	.	12cc'\J	.
.	.	.	.	.	.	12g'/L	.	12b'\L	.
.	.	.	.	.	.	12f'/	.	12a'\	.
.	.	.	.	.	.	12e'/J	.	12g'\J	.
=19	=19	=19	=19	=19	=19	=19	=19	=19	=19
4GG'/	f	4G'/	f	4B'/	f	4d'/	f	4f'/	f
4r	.	4r	.	4r	.	4r	.	4r	.
2r	.	2r	.	2r	.	4r	.	12b'\L	p
.	.	.	.	.	.	.	.	(12dd\	.
.	.	.	.	.	.	.	.	12cc\J	.
.	.	.	.	.	.	12g'\L	p	12b'\L)	.
.	.	.	.	.	.	(12dd\	.	(12ff\	.
.	.	.	.	.	.	12cc\J	.	12ee\J	.
=20	=20	=20	=20	=20	=20	=20	=20	=20	=20
1r	.	1r	.	1r	.	12b'\L)	.	12dd'\L)	.
.	.	.	.	.	.	(12bb\	.	(12ddd\	.
.	.	.	.	.	.	12aa\J	.	12ccc\J	.
.	.	.	.	.	.	12gg'\L)	.	12bb'\L)	.
.	.	.	.	.	.	(12gg\	.	(12bb\	.
.	.	.	.	.	.	12ff\J	.	12aa\J	.
.	.	.	.	.	.	12ee'\L)	.	12gg'\L)	.
.	.	.	.	.	.	(12ee\	.	(12gg\	.
.	.	.	.	.	.	12dd\J	.	12ff\J	.
.	.	.	.	.	.	12cc'\L)	.	12ee'\L	.
.	.	.	.	.	.	(12cc\	.	(12ee\)	.
.	.	.	.	.	.	12b\J	.	12dd\J	.
=21	=21	=21	=21	=21	=21	=21	=21	=21	=21
4C/	f	4G'/	f	4c'\	f	4cc'\)	f	4ee'\)	f
4r	.	4r	.	4r	.	4r	.	4r	.
2r	.	2r	.	4r	.	12c'/L	p	2r	.
.	.	.	.	.	.	(12e/	.	.	.
.	.	.	.	.	.	12d/J	.	.	.
.	.	.	.	12c\L	p	12c'/L)	.	.	.
.	.	.	.	(12e\	.	(12g/	.	.	.
.	.	.	.	12d\J	.	12f/J	.	.	.
=22	=22	=22	=22	=22	=22	=22	=22	=22	=22
4CC/	p	4C/	p	12c'\L)	.	12e'\L)	.	12r	.
.	.	.	.	(12cc\	.	(12ee\	.	(12eee\L	p
.	.	.	.	12b\J	.	12dd\J	.	12ddd\J	.
4EE/	.	4E/	.	12a'\L)	.	12cc'\L)	.	12ccc'\L)	.
.	.	.	.	(12a\	.	(12cc\	.	(12ccc\	.
.	.	.	.	12g\J	.	12b\J	.	12bb\J	.
4GG/	.	4G/	.	12f'\L)	.	12a'/L	.	12aa'\L)	.
.	.	.	.	(12f\	.	(12a/)	.	(12aa\	.
.	.	.	.	12e\J	.	12g/J	.	12gg\J	.
4C/	.	4c/	.	12d'\L)	.	12f'/L)	.	12ff'\L)	.
.	.	.	.	(12d\	.	(12f/	.	(12ff\	.
.	.	.	.	12c\J	.	12e/J	.	12ee\J	.
=23	=23	=23	=23	=23	=23	=23	=23	=23	=23
4GG/	f	4B'/	f	4d'\)	f	4f/)	f	4ff'\)	f
4r	.	4r	.	4r	.	4r	.	4r	.
2r	.	2r	.	4r	.	12d'/L	p	2r	.
.	.	.	.	.	.	(12f/	.	.	.
.	.	.	.	.	.	12e/J	.	.	.
.	.	.	.	12B'\L	p	12d'/L)	.	.	.
.	.	.	.	(12f\	.	12dd/	.	.	.
.	.	.	.	12e\J	.	(12cc/J	.	.	.
=24	=24	=24	=24	=24	=24	=24	=24	=24	=24
4GG/	p	4G/	p	12d'\L)	.	12b'\L)	.	12r	.
.	.	.	.	(12dd\	.	(12ff\	.	(12fff\L	p
.	.	.	.	12cc\J	.	12ee\J	.	12eee\J	.
4BB/	.	4B/	.	12b'\L)	.	12dd'\L)	.	12ddd'\L)	.
.	.	.	.	(12b\	.	(12dd\	.	(12ddd\	.
.	.	.	.	12a\J	.	12cc\J	.	12ccc\J	.
4D\	.	4d\	.	12g'\L)	.	12b'/L)	.	12bb'\L)	.
.	.	.	.	(12g\	.	(12b/	.	(12bb\	.
.	.	.	.	12f\J	.	12a/J	.	12aa\J	.
4G\	.	4g\	.	12e'\L)	.	12g'/L)	.	12gg'\L)	.
.	.	.	.	(12e\	.	(12g/	.	(12gg\	.
.	.	.	.	12d\J)	.	12f/J)	.	12ff\J)	.
=25	=25	=25	=25	=25	=25	=25	=25	=25	=25
*	*	*^	*	*	*	*	*	*	*
[1G#	.	[1e	[1B	.	[1b	.	[1e [1dd	.	(2.ee\	.
.	.	.	.	.	.	.	.	.	4dd#\	.
*	*	*v	*v	*	*	*	*	*	*	*
=26	=26	=26	=26	=26	=26	=26	=26	=26	=26
2.G#\]	.	2.B\] 2.e\]	.	2.b\]	.	2.e/] 2.dd/]	.	4ee\	.
.	.	.	.	.	.	.	.	4dd#\	.
.	.	.	.	.	.	.	.	4ee\	.
(4GG#/	.	[4E/	.	(4B/	.	(4b\	.	4ff\)	.
=27	=27	=27	=27	=27	=27	=27	=27	=27	=27
4AA/	.	1E_	.	4c/	.	4cc\	.	(2.ee\	.
4GG#/	.	.	.	4B/	.	4b\	.	.	.
[2AA/)	.	.	.	[2c/)	.	[2cc\)	.	.	.
.	.	.	.	.	.	.	.	4dd#\	.
=28	=28	=28	=28	=28	=28	=28	=28	=28	=28
2.AA/]	.	2.E/]	.	2.c/]	.	2.cc\]	.	4ee\	.
.	.	.	.	.	.	.	.	4dd#\	.
.	.	.	.	.	.	.	.	4ee\	.
(4AA/	.	[4E/	.	(4c#\	.	(4cc#\	.	4ff\)	.
=29	=29	=29	=29	=29	=29	=29	=29	=29	=29
4BB/	.	1E_	.	4d\	.	4dd\	.	(2.ee\	.
4AA#/	.	.	.	4c#\	.	4cc#\	.	.	.
[2BB/)	.	.	.	[2d\)	.	[2dd\)	.	.	.
.	.	.	.	.	.	.	.	4dd#\	.
=30	=30	=30	=30	=30	=30	=30	=30	=30	=30
2.BB/]	.	2.E/]	.	2.d\]	.	2.dd\]	.	4ee\	.
.	.	.	.	.	.	.	.	4dd#\	.
.	.	.	.	.	.	.	.	4ee\	.
(4BB/	.	(4D/	.	(4G#/	.	(4g#/	.	4ff\)	.
=31	=31	=31	=31	=31	=31	=31	=31	=31	=31
4CC/)	p	8E/L)	p	8A/L)	p	8a/L)	p	[2ee\	p
.	.	8A'/	.	8cn'/	.	8e'/	.	.	.
4EE'/	.	8A'/	.	8c'/	.	8e'/	.	.	.
.	.	8A'/J	.	8c'/J	.	8e'/J	.	.	.
4AA'/	.	8A'/L	.	8c'/L	.	8e'/L	.	8ee\L]	.
.	.	8A'/	.	8c'/	.	8e'/	.	(8ee\	.
4C/	.	8A'/	.	8c'/	.	8e'/	.	8ddn\	.
.	.	8A'/J	.	8c'/J	.	8e'/J	.	8cc\J)	.
=32	=32	=32	=32	=32	=32	=32	=32	=32	=32
4DD/	.	8r	.	8r	.	8r	.	(8cc\L	.
.	.	8A/L	.	8B/L	.	8f/L	.	8b\)	.
4D/	.	8A/	.	8B/	.	8f/	.	8b'\	.
.	.	8A/J	.	8B/J	.	8f/J	.	8b'\J	.
4DD/	.	8r	.	8r	.	8r	.	(8b/L	.
.	.	8A/L	.	8c/L	.	8f#/L	.	8a/)	.
4D#/	.	8A/	.	8c/	.	8f#/	.	8a'/	.
.	.	8c/J	.	8A/J	.	8f#/J	.	8a'/J	.
=33	=33	=33	=33	=33	=33	=33	=33	=33	=33
4E\	.	8B/L	.	(8E'/L	.	8e/	.	4g#/	.
.	.	8G#/	.	8G#'/	.	8B/ 8e/L	.	.	.
4r	.	8G#/	.	8B'/)	.	8B/ 8e/	.	4r	.
.	.	8G#/J	.	8e'/J	.	8B/ 8e/J	.	.	.
2r	.	8G#/L	.	8g#'\L	.	8B/ 8e/L	.	2r	.
.	.	8G#/	.	8b'\	.	8B/ 8e/	.	.	.
.	.	8G#/	.	(8ee\	.	8B/ 8e/	.	.	.
.	.	8G#/J	.	8dd\J)	.	8B/ 8e/J	.	.	.
=34	=34	=34	=34	=34	=34	=34	=34	=34	=34
4A\	.	8A/L	.	4cc\	.	8c/ 8e/L	.	8r	.
.	.	8A/	.	.	.	8c/ 8e/	.	8a'\L	.
4E\	.	8A/	.	4r	.	8c/ 8e/	.	8cc'\	.
.	.	8A/J	.	.	.	8e/J	.	8ee'\J	.
4C/	.	8A/L	.	2r	.	8c/ 8e/L	.	8aa'\L	.
.	.	8A/	.	.	.	8c/ 8e/	.	8ccc'\	.
4AA/	.	8A/	.	.	.	8c/ 8e/	.	(8eee\	.
.	.	8A/J	.	.	.	8c/ 8e/J	.	8ccc\J)	.
=35	=35	=35	=35	=35	=35	=35	=35	=35	=35
8EE'/L	.	8G#/L	.	1r	.	8B/ 8e/L	.	4bb'\	.
8GG#'/	.	8G#/	.	.	.	8B/ 8e/	.	.	.
8BB'/	.	8G#/	.	.	.	8B/ 8e/	.	4r	.
8E'/J	.	8G#/J	.	.	.	8B/ 8e/J	.	.	.
8G#'\L	.	8G#/L	.	.	.	8B/ 8e/L	.	2r	.
8B'\	.	8G#/	.	.	.	8B/ 8e/	.	.	.
(8e\	.	8G#/	.	.	.	8B/ 8e/	.	.	.
8d\J)	.	8G#/J	.	.	.	8B/ 8e/J	.	.	.
=36	=36	=36	=36	=36	=36	=36	=36	=36	=36
8c'\L	.	8A/L	.	8E'/L	.	8c/ 8e/L	.	8r	.
8A'\	.	8A/	.	8A'/	.	8c/ 8e/	.	8a'\L	.
8E'\	.	8A/	.	8c'/	.	8c/ 8e/	.	8cc'\	.
8C'\J	.	8A/J	.	8e'/J	.	8c/ 8e/J	.	8ee'\J	.
8A'\L	.	8A/L	.	8a'\L	.	8c/ 8e/L	.	8aa'\L	.
8E'\	.	8A/	.	8e'\	.	8c/ 8e/	.	8ccc'\	.
8C'\	.	8A/	.	8c'\	.	8c/ 8e/	.	(8eee\	.
8AA'\J	.	8A/J	.	8A'\J	.	8c/ 8e/J	.	8ccc\J)	.
=37	=37	=37	=37	=37	=37	=37	=37	=37	=37
4EE'/	.	8G#/L	.	8E/L	.	8B/ 8e/L	.	8bb'\L	.
.	.	8G#/	.	8B/	.	8e/	.	(8ee\	.
8r	.	8G#/	.	8B/	.	8e/	.	8eee\)	.
8E'\	.	8G#/J	.	8B/J	.	8e/J	.	(8bb\J	.
4A'\	.	8A/L	.	8c/L	.	8e/L	.	(8ccc\L)	.
.	.	8A/	.	8c/	.	8e/	.	8aa\	.
8r	.	8A/	.	8c/	.	8e/	.	8eee\)	.
8AA'/	.	8A/J	.	8c/J	.	8e/J	.	(8ccc\J	.
=38	=38	=38	=38	=38	=38	=38	=38	=38	=38
4EE'/	.	8G#/L	.	8B/L	.	8e/L	.	8bb\L)	.
.	.	8G#/	.	8B/	.	8e/	.	(8ee\	.
8r	.	8G#/	.	8B/	.	8e/	.	8eee\)	.
8E'\	.	8G#/J	.	8B/J	.	8e/J	.	(8bb\J	.
4A'\	.	8A/L	.	8c/L	.	8e/L	.	8ccc\L)	.
.	.	8A/	.	8c/	.	8e/	.	(8aa\	.
8r	.	8A/	.	8c/	.	8e/	.	8eee\)	.
8AA'/	.	8A/J	.	8c/J	.	8e/J	.	(8ccc\J	.
=39	=39	=39	=39	=39	=39	=39	=39	=39	=39
4EE'/	p	4G#/	p	4B/	p	4e/	p	4bb\)	.
4r	.	4r	.	4r	.	4r	.	8r	.
.	.	.	.	.	.	.	.	(8eee\	p
2r	.	2r	.	2r	.	2r	.	4ee\)	.
.	.	.	.	.	.	.	.	8r	.
.	.	.	.	.	.	.	.	(8dd#\	.
=40	=40	=40	=40	=40	=40	=40	=40	=40	=40
1r	.	1r	.	1r	.	1r	.	4ee\)	.
.	.	.	.	.	.	.	.	8r	.
.	.	.	.	.	.	.	.	(8dd#\	pp
.	.	.	.	.	.	.	.	8ee\L	.
.	.	.	.	.	.	.	.	8dd#\	.
.	.	.	.	.	.	.	.	8ee\	.
.	.	.	.	.	.	.	.	8dd#\J)	.
=41	=41	=41	=41	=41	=41	=41	=41	=41	=41
1r	.	1r	.	(2a\	pp	(2cc#\	pp	(2ee\	.
.	.	.	.	2d\)	.	8dd\L	.	8ff#\L	.
.	.	.	.	.	.	8cc#\	.	8ee\	.
.	.	.	.	.	.	8b\	.	8ddn\	.
.	.	.	.	.	.	8a\J)	.	8cc#\J)	.
=42	=42	=42	=42	=42	=42	=42	=42	=42	=42
1r	.	1r	.	(2e\	.	(2.g#/	.	(2.b\	.
.	.	.	.	8f#\L	.	.	.	.	.
.	.	.	.	8e\	.	.	.	.	.
.	.	.	.	8d\	.	4a/)	.	4cc#\)	.
.	.	.	.	8c#\J)	.	.	.	.	.
=43	=43	=43	=43	=43	=43	=43	=43	=43	=43
1r	.	1r	.	(2.B/	.	(2b/	.	(2dd\	.
.	.	.	.	.	.	8cc#/L	.	8ee\L	.
.	.	.	.	.	.	8b/	.	8dd\	.
.	.	.	.	4c#/)	.	8a/	.	8cc#\	.
.	.	.	.	.	.	8g#/J)	.	8b\J)	.
=44	=44	=44	=44	=44	=44	=44	=44	=44	=44
1r	.	1r	.	(2d\	.	(2.f#/	.	(2.a/	.
.	.	.	.	8e\L	.	.	.	.	.
.	.	.	.	8d\	.	.	.	.	.
.	.	.	.	8c#\	.	4g#/)	.	4b/)	.
.	.	.	.	8B\J)	.	.	.	.	.
=45	=45	=45	=45	=45	=45	=45	=45	=45	=45
1r	.	1r	.	(2A/	.	[1a	.	(2cc#\	.
.	.	.	.	2f#\	.	.	.	4dd\	.
.	.	.	.	.	.	.	.	4dd#\	.
=46	=46	=46	=46	=46	=46	=46	=46	=46	=46
1r	.	1r	.	2c#\)	.	2a/]	.	4ee\	.
.	.	.	.	.	.	.	.	4ee#\)	.
.	.	.	.	[2d\	.	[2a/	.	[2ff#\	.
=47	=47	=47	=47	=47	=47	=47	=47	=47	=47
1r	.	4r	.	4d\]	.	4a/]	.	(4ff#\]	.
.	.	(4F#/	.	(4d#'\	<	(4a'/	>	4b'\)	>
.	.	4E/	.	4e'\	.	4a'/	.	(4b'\	.
.	.	4D#/)	.	4f#'\	>	4a'/	.	4b'\)	.
=48	=48	=48	=48	=48	=48	=48	=48	=48	=48
4r	.	4E/	p	4e'\)	p	4g#'/)	p	4b'\	p
(4D/	p	2E/	.	(4G#/	.	(4B/	.	4r	.
4C#/	.	.	.	4A/	.	4c#/	.	2r	.
4BB/)	.	4E/	.	4B/)	.	4d/)	.	.	.
=49	=49	=49	=49	=49	=49	=49	=49	=49	=49
(2AA/	p	[1E	p	(2c#\	p	(2e/	p	1r	.
2C#/)	.	.	.	8d/L	.	8f#/L	.	.	.
.	.	.	.	8c#/	.	8e/	.	.	.
.	.	.	.	8B/	.	8d/	.	.	.
.	.	.	.	8A/J)	.	8c#/J)	.	.	.
=50	=50	=50	=50	=50	=50	=50	=50	=50	=50
(2E\	.	1E_	.	(2.G#/	.	(2.B/	.	1r	.
8F#\L	.	.	.	.	.	.	.	.	.
8E\	.	.	.	.	.	.	.	.	.
8D\	.	.	.	4A#/)	.	4c#/)	.	.	.
8C#\J)	.	.	.	.	.	.	.	.	.
=51	=51	=51	=51	=51	=51	=51	=51	=51	=51
(2.BB/	.	1E_	.	(2B/	.	(2d/	.	1r	.
.	.	.	.	8c#/L	.	8e/L	.	.	.
.	.	.	.	8B/	.	8d/	.	.	.
4C#/)	.	.	.	8An/	.	8c#/	.	.	.
.	.	.	.	8G#/J)	.	8B/J)	.	.	.
=52	=52	=52	=52	=52	=52	=52	=52	=52	=52
(2D\	.	1E_	.	(2.F#/	.	(2.A/	.	1r	.
8E\L	.	.	.	.	.	.	.	.	.
8D\	.	.	.	.	.	.	.	.	.
8Cn\	.	.	.	4G#/)	.	4B/)	.	.	.
8BB\J)	.	.	.	.	.	.	.	.	.
=53	=53	=53	=53	=53	=53	=53	=53	=53	=53
(2AA/	.	4E/]	.	4A/	.	4cn/	.	(2cccn\	p
.	.	(4C'/ 4c'/	.	4r	.	4r	.	.	.
8BB-/L	.	4C'/ 4c'/	.	2r	.	2r	.	8ddd\L	.
8AA/	.	.	.	.	.	.	.	8ccc\	.
8GG/	.	4C'/) 4c'/	.	.	.	.	.	8bb-\	.
8FF/J)	.	.	.	.	.	.	.	8aa\J)	.
=54	=54	=54	=54	=54	=54	=54	=54	=54	=54
(2.EE/	.	(4C'/ 4c'/	.	(2cn/	.	(2cc\	.	(2.gg\	.
.	.	4C'/ 4c'/	.	.	.	.	.	.	.
.	.	4C/ 4c/	.	8d/L	.	8dd\L	.	.	.
.	.	.	.	8c/	.	8cc\	.	.	.
4FF/)	.	4C'/) 4c'/	.	8B-/	.	8b-\	.	4aa\)	.
.	.	.	.	8A/J)	.	8a\J)	.	.	.
=55	=55	=55	=55	=55	=55	=55	=55	=55	=55
(2GG/	.	(4C'/ 4c'/	.	(2.G/	.	(2.g/	.	(2bb-\	.
.	.	4C'/ 4c'/	.	.	.	.	.	.	.
8AA/L	.	4C'/ 4c'/	.	.	.	.	.	8ccc\L	.
8GG/	.	.	.	.	.	.	.	8bb-\	.
8FF/	.	4C'/) 4c'/	.	4A/)	.	4a/)	.	8aa\	.
8EE/J)	.	.	.	.	.	.	.	8gg\J)	.
=56	=56	=56	=56	=56	=56	=56	=56	=56	=56
(2.DD/	.	(4C'/ 4c'/	.	(2B-/	.	(2b-/	.	(2.ff\	.
.	.	4C'/ 4c'/	.	.	.	.	.	.	.
.	.	4C'/ 4c'/	.	8c/L	.	8cc/L	.	.	.
.	.	.	.	8B-/	.	8b-/	.	.	.
4EE/)	.	4C'/) 4c'/	.	8A/	.	8a/	.	4gg\)	.
.	.	.	.	8G/J)	.	8g/J)	.	.	.
=57	=57	=57	=57	=57	=57	=57	=57	=57	=57
2FF'/	.	2C'/ 2c'/	.	2F'/	.	2f'/	.	2aa'\	.
2EE'/	.	2C'/ 2c'/	.	2e'\	.	2a'/	.	2aa'\	.
=58	=58	=58	=58	=58	=58	=58	=58	=58	=58
*	*	*	*	*^	*	*	*	*	*
1DD#	.	2.C/ (2.c/	.	2.r	2.f#\	.	(2.a/	.	(2aa\	.
.	.	.	.	.	.	.	.	.	2gg\)	.
.	.	8B/L	.	[4a/	4f#\	.	4b\	.	.	.
.	.	8A/J)	.	.	.	.	.	.	.	.
=59	=59	=59	=59	=59	=59	=59	=59	=59	=59	=59
4EE/	f	4e\	f	4a'/]	4e\	f	4cc'\)	f	(4.ccc\	f
4E'\	.	4A'/	.	2.r	4c'\	.	4e'/	.	.	.
.	.	.	.	.	.	.	.	.	8ddd\	.
4E'\	.	4A'/	.	.	4c'\	.	4e'/	.	4eee'\)	.
4E'\	.	4B'/	.	.	4d'\	.	4e'/	.	4gg#'\	.
*	*	*	*	*v	*v	*	*	*	*	*
=60	=60	=60	=60	=60	=60	=60	=60	=60	=60
4AA/	.	4A'/	.	4c\	.	4e'/	.	4aa'\	.
4r	.	4r	.	4r	.	4r	.	4r	.
(2c#\	pp	2r	.	(2e\	pp	[2a/	pp	(2aa\	pp
=61	=61	=61	=61	=61	=61	=61	=61	=61	=61
4d'\)	.	1r	.	4f'\)	.	4a'/]	.	4ff'\)	.
4r	.	.	.	4r	.	4r	.	4r	.
(2G#\	.	.	.	(2B/	.	[2e/	.	(2ee\	.
=62	=62	=62	=62	=62	=62	=62	=62	=62	=62
4A'\)	.	1r	.	4c'/)	.	4e'/]	.	4cc'\)	.
4r	.	.	.	4r	.	4r	.	4r	.
(2D#\	.	.	.	(2F#/	.	[2B/	.	(2b/	.
=63	=63	=63	=63	=63	=63	=63	=63	=63	=63
4Dn'\)	.	4f'\	.	4Fn'/)	.	4B/]	.	4g#'/)	.
4C'/	.	[4e\	.	4E'/	.	4c'/	.	4a'/	.
4D'\	.	8e\L]	.	4A'/	.	4B'/	.	4f'/	.
.	.	8d'\	.	.	.	.	.	.	.
4E'\	.	8c'\	.	4G#'/	.	4B'/	.	4e'/	.
.	.	8B'\J	.	.	.	.	.	.	.
=64	=64	=64	=64	=64	=64	=64	=64	=64	=64
4AA/	p	4A/	p	12c\L	p	12e/L	p	4A/	.
.	.	.	.	12e\	.	12a/	.	.	.
.	.	.	.	12a\J	.	12cc/J	.	.	.
4r	.	4r	.	12cc\L	.	12ee\L	.	4r	.
.	.	.	.	12b\	.	12dd\	.	.	.
.	.	.	.	12a\J	.	12cc\J	.	.	.
12E\L	.	12G#/L	.	4g#\	.	4b\	.	12ee\L	.
12E\	.	12G#/	.	.	.	.	.	12gg#\	.
12E\J	.	12G#/J	.	.	.	.	.	12bb\J	.
12E\L	.	12G#/L	.	4r	.	4r	.	12eee\L	.
12F#\	.	12A/	.	.	.	.	.	12ddd#\	.
12G#\J	.	12B/J	.	.	.	.	.	12dddn\J	.
=65	=65	=65	=65	=65	=65	=65	=65	=65	=65
4A\	.	4c/	.	12A\L	.	12c/L	.	4ccc\	.
.	.	.	.	12c\	.	12f/	.	.	.
.	.	.	.	12f\J	.	12a/J	.	.	.
4r	.	4r	.	12a\L	.	12cc/L	.	4r	.
.	.	.	.	12gn\	.	12b-/	.	.	.
.	.	.	.	12f\J	.	12a/J	.	.	.
12C/L	.	12E/L	.	4e\	.	4g/	.	12cc\L	.
12C/	.	12E/	.	.	.	.	.	12ee\	.
12C/J	.	12E/J	.	.	.	.	.	12gg\J	.
12C/L	.	12E/L	.	4r	.	4r	.	12ccc\L	.
12D/	.	12F/	.	.	.	.	.	12bb\	.
12E/J	.	12Gn/J	.	.	.	.	.	12bb-\J	.
=66	=66	=66	=66	=66	=66	=66	=66	=66	=66
4Fn\	.	4A/	.	12F/L	.	12A/L	.	4aa\	.
.	.	.	.	12A/	.	12d/	.	.	.
.	.	.	.	(12d/J	.	12f/J	.	.	.
4r	.	4r	.	12f\L	.	12a/L	.	4r	.
.	.	.	.	12e\)	.	12g/	.	.	.
.	.	.	.	12d\J	.	12f/J	.	.	.
12AA/L	.	12C#/L	.	4c#\	.	4e/	.	12a\L	.
12AA/	.	12C#/	.	.	.	.	.	12cc#\	.
12AA/J	.	12C#/J	.	.	.	.	.	12ee\J	.
12AA/L	.	12C#/L	.	4r	.	4r	.	12aa\L	.
12BB/	.	12D/	.	.	.	.	.	12gg#\	.
12C#/J	.	12E/J	.	.	.	.	.	12ggn\J	.
=67	=67	=67	=67	=67	=67	=67	=67	=67	=67
4D\	.	4F/	.	4r	.	4r	.	12ff\L	.
.	.	.	.	.	.	.	.	12ee\	.
.	.	.	.	.	.	.	.	12ff\J	.
4r	.	4r	.	12A/L	.	12c#/L	.	12aa\L	.
.	.	.	.	12B/	.	12d/	.	12gg#\	.
.	.	.	.	12c#/J	.	12e/J	.	12ggn\J	.
4r	.	4r	.	4d\	.	4f/	.	12ff\L	.
.	.	.	.	.	.	.	.	12ee\	.
.	.	.	.	.	.	.	.	12ff\J	.
12AA/L	.	12C#/L	.	4r	.	4r	.	12aa\L	.
12BB/	.	12D/	.	.	.	.	.	12gg#\	.
12C#/J	.	12E/J	.	.	.	.	.	12ggn\J	.
=68	=68	=68	=68	=68	=68	=68	=68	=68	=68
4D/	.	4F/	.	4r	.	4r	.	12ff\L	.
.	.	.	.	.	.	.	.	12ee\	.
.	.	.	.	.	.	.	.	12ff\J	.
4r	.	4r	.	12A/L	.	12c#/L	.	12aa\L	.
.	.	.	.	12B/	.	12d/	.	12gg#\	.
.	.	.	.	12c#/J	.	12e/J	.	12ggn\J	.
4r	.	4r	.	4d\	.	4f/	.	12ff\L	.
.	.	.	.	.	.	.	.	12ee\	.
.	.	.	.	.	.	.	.	12ff\J	.
12E\L	.	12G#/L	.	4r	.	4r	.	12eee\L	.
12F#\	.	12A/	.	.	.	.	.	12ddd#\	.
12G#\J	.	12B/J	.	.	.	.	.	12dddn\J	.
=69	=69	=69	=69	=69	=69	=69	=69	=69	=69
4A\	.	4c/	.	4r	.	4r	.	12ccc\L	.
.	.	.	.	.	.	.	.	12bb\	.
.	.	.	.	.	.	.	.	12ccc\J	.
4r	.	4r	.	12e\L	.	12g#/L	.	12eee\L	.
.	.	.	.	12f#\	.	12a/	.	12ddd#\	.
.	.	.	.	12g#\J	.	12b/J	.	12dddn\J	.
4r	.	4r	.	4a\	.	4cc\	.	12ccc\L	.
.	.	.	.	.	.	.	.	12bb\	.
.	.	.	.	.	.	.	.	12ccc\J	.
12E\L	.	12G#/L	.	4r	.	4r	.	12eee\L	.
12F#\	.	12A/	.	.	.	.	.	12ddd#\	.
12G#\J	.	12B/J	.	.	.	.	.	12dddn\J	.
=70	=70	=70	=70	=70	=70	=70	=70	=70	=70
4A\	.	4c/	.	4r	.	4r	.	12ccc\L	.
.	.	.	.	.	.	.	.	12bb\	.
.	.	.	.	.	.	.	.	12ccc\J	.
4r	.	4r	.	12e\L	.	12g#/L	.	12eee\L	.
.	.	.	.	12f#\	.	12a/	.	12ddd#\	.
.	.	.	.	12g#\J	.	12b/J	.	12dddn\J	.
4r	.	4r	.	4a\	.	4cc\	.	12ccc\L	.
.	.	.	.	.	.	.	.	12bb\	.
.	.	.	.	.	.	.	.	12ccc\J	.
12E\L	.	12G#/L	.	4r	.	4r	.	12eee\L	.
12F#\	.	12A/	.	.	.	.	.	12ddd#\	.
12G#\J	.	12B/J	.	.	.	.	.	12dddn\J	.
=71	=71	=71	=71	=71	=71	=71	=71	=71	=71
4A'\	f	4c'/	f	4r	.	4r	.	4ccc'\	f
2D\	.	2F/	.	2d\	f	2b-/	f	2fff\	.
4D'\	.	4F'/	.	4d'\	.	4b-'/	.	4B-'/	.
=72	=72	=72	=72	=72	=72	=72	=72	=72	=72
1D	.	1F	.	1b	.	4g#'/	.	1Bn	.
.	.	.	.	.	.	2gg#\	.	.	.
.	.	.	.	.	.	4g#'/	.	.	.
=73	=73	=73	=73	=73	=73	=73	=73	=73	=73
4D#\	p	(2F#/	p	4cc'\	.	4a/	.	4c/	.
4r	.	.	.	4c\	p	4f#/	p	4a/	p
4D#\	.	[2A/	.	4r	.	4r	.	4r	.
4r	.	.	.	4f#\	.	4a/	.	4b\	.
=74	=74	=74	=74	=74	=74	=74	=74	=74	=74
4E\	.	2A/]	.	4r	.	4r	.	4r	.
4r	.	.	.	4e\	.	4a/	.	4cc\	.
4E\	.	2B/)	.	4r	.	4r	.	4r	.
4r	.	.	.	4e\	.	4d/	.	4g#/	.
=75	=75	=75	=75	=75	=75	=75	=75	=75	=75
4AA/	.	8A/L	.	(2.c#\	.	(2.a/	.	4a/	.
.	.	8E/	.	.	.	.	.	.	.
4r	.	8E/	.	.	.	.	.	4r	.
.	.	8E/J	.	.	.	.	.	.	.
2r	.	8E/L	.	.	.	.	.	2r	.
.	.	8E/	.	.	.	.	.	.	.
.	.	8E/	.	4B/	.	4g#/	.	.	.
.	.	8E/J	.	.	.	.	.	.	.
=76	=76	=76	=76	=76	=76	=76	=76	=76	=76
1r	.	8E/L	.	4c#\	.	4a/	.	1r	.
.	.	8E/	.	.	.	.	.	.	.
.	.	8E/	.	4B/	.	4g#/	.	.	.
.	.	8E/J	.	.	.	.	.	.	.
.	.	8E/L	.	4c#\	.	4a/	.	.	.
.	.	8E/	.	.	.	.	.	.	.
.	.	8E/	.	4d\)	.	4b/)	.	.	.
.	.	8E/J	.	.	.	.	.	.	.
=77	=77	=77	=77	=77	=77	=77	=77	=77	=77
4D\	.	8E/L	.	8B\L	.	8g#/L	.	(2.eee\	p
.	.	8G#/	.	8B\ 8d\	.	8e/	.	.	.
4r	.	8G#/	.	8B\ 8d\	.	8e/	.	.	.
.	.	8G#/J	.	8B\ 8d\J	.	8e/J	.	.	.
4BB/	.	8r	.	8r	.	8r	.	.	.
.	.	8G#/L	.	8B\ 8d\L	.	8e/L	.	.	.
4r	.	8G#/	.	8B\ 8d\	.	8e/	.	4ddd#\	.
.	.	8G#/J	.	8B\ 8d\J	.	8e/J	.	.	.
=78	=78	=78	=78	=78	=78	=78	=78	=78	=78
4GG#/	.	8r	.	8r	.	8r	.	4eee\	.
.	.	8G#/L	.	8B\ 8d\L	.	8e/L	.	.	.
4r	.	8G#/	.	8B\ 8d\	.	8e/	.	4ddd#\	.
.	.	8G#/J	.	8B\ 8d\J	.	8e/J	.	.	.
4EE/	.	8r	.	8r	.	8r	.	4eee\	.
.	.	8G#/L	.	8B\ 8d\L	.	8e/L	.	.	.
4r	.	8G#/	.	8B\ 8d\	.	8e/	.	4ddd#\)	.
.	.	8G#/J	.	8B\ 8d\J	.	8e/J	.	.	.
=79	=79	=79	=79	=79	=79	=79	=79	=79	=79
4AA/	.	8A/L	.	(2.cn\	.	4e/	.	4eee\	.
.	.	8E/	.	.	.	.	.	.	.
4r	.	8E/	.	.	.	(2a/	.	4r	.
.	.	8E/J	.	.	.	.	.	.	.
2r	.	8E/L	.	.	.	.	.	2r	.
.	.	8E/	.	.	.	.	.	.	.
.	.	8E/	.	4B/	.	4g#/	.	.	.
.	.	8E/J	.	.	.	.	.	.	.
=80	=80	=80	=80	=80	=80	=80	=80	=80	=80
1r	.	8E/L	.	4c\	.	4a/	.	1r	.
.	.	8E/	.	.	.	.	.	.	.
.	.	8E/	.	4B/	.	4g#/	.	.	.
.	.	8E/J	.	.	.	.	.	.	.
.	.	8E/L	.	4c\	.	4a/	.	.	.
.	.	8E/	.	.	.	.	.	.	.
.	.	8E/	.	4d\)	.	4b/)	.	.	.
.	.	8E/J	.	.	.	.	.	.	.
=81	=81	=81	=81	=81	=81	=81	=81	=81	=81
4D/	.	8E/L	.	8B\L	.	8g#/L	.	(2.eee\	p
.	.	8G#/	.	8B\ 8d\	.	8e/	.	.	.
4r	.	8G#/	.	8B\ 8d\	.	8e/	.	.	.
.	.	8G#/J	.	8B\ 8d\J	.	8e/J	.	.	.
4BB/	.	8r	.	8r	.	8r	.	.	.
.	.	8G#/L	.	8B\ 8d\L	.	8e/L	.	.	.
4r	.	8G#/	.	8B\ 8d\	.	8e/	.	4ddd#\	.
.	.	8G#/J	.	8B\ 8d\J	.	8e/J	.	.	.
=82	=82	=82	=82	=82	=82	=82	=82	=82	=82
4GG#/	.	8r	.	8r	.	8r	.	4eee\	.
.	.	8G#/L	.	8B\ 8d\L	.	8e/L	.	.	.
4r	.	8G#/	.	8B\ 8d\	.	8e/	.	4ddd#\	.
.	.	8G#/J	.	8B\ 8d\J	.	8e/J	.	.	.
4EE/	.	8r	.	8r	.	8r	.	4eee\	.
.	.	8G#/L	.	8B\ 8d\L	.	8e/L	.	.	.
4r	.	8G#/	.	8B\ 8d\	.	8e/	.	4fff\)	.
.	.	8G#/J	.	8B\ 8d\J	.	8e/J	.	.	.
=83	=83	=83	=83	=83	=83	=83	=83	=83	=83
4AA'/	.	4A'/	.	4c'/	.	4e/	.	(2.eee\	.
(4C/	.	(4E/	.	(4A/	.	4r	.	.	.
4BB/	.	4G#/	.	4B/	.	4r	.	.	.
4AA/	.	4A/	.	4c/	.	(8cc/L	.	4ddd#\	.
.	.	.	.	.	.	8a/J	.	.	.
=84	=84	=84	=84	=84	=84	=84	=84	=84	=84
2.EE/)	.	2.G#/)	.	2.B/)	.	8b/L	.	4eee\	.
.	.	.	.	.	.	8g#/	.	.	.
.	.	.	.	.	.	8b/	.	4ddd#\	.
.	.	.	.	.	.	8g#/J	.	.	.
.	.	.	.	.	.	8b/L	.	4eee\	.
.	.	.	.	.	.	8g#/	.	.	.
(4EE/	.	4G#/	.	(4B/	.	8e/	.	4fff\)	.
.	.	.	.	.	.	8d/J	.	.	.
=85	=85	=85	=85	=85	=85	=85	=85	=85	=85
4AA/	.	(4A/	.	4c/	.	4c'/)	.	(2.eee\	.
4C/	.	4E/	.	4A/	.	4r	.	.	.
4BB/	.	4G#/	.	4B/	.	4r	.	.	.
4AA/	.	4A/	.	4c/	.	(8cc/L	.	4ddd#\	.
.	.	.	.	.	.	8a/J	.	.	.
=86	=86	=86	=86	=86	=86	=86	=86	=86	=86
2.EE/)	.	2.G#/)	.	2.B/)	.	8b/L	.	4eee\	.
.	.	.	.	.	.	8g#/	.	.	.
.	.	.	.	.	.	8b/	.	4ddd#\	.
.	.	.	.	.	.	8g#/J	.	.	.
.	.	.	.	.	.	8b/L	.	4eee\	.
.	.	.	.	.	.	8g#/	.	.	.
(4EE/	.	(4G#/	.	(4B/	.	8e/	.	4fff\)	.
.	.	.	.	.	.	8d/J	.	.	.
=87	=87	=87	=87	=87	=87	=87	=87	=87	=87
8AA/L	.	8A/L	.	8c/L	.	4c/)	.	[2eee\	.
8C/	.	8E/	.	8A/	.	.	.	.	.
8BB/	.	8G#/	.	8B/	.	8r	.	.	.
8AA/J)	.	8A/J)	.	8c/J)	.	(8cc\	.	.	.
4.EE/	.	4.G#/	.	4.B/	.	8b/L	.	(8eee\L]	.
.	.	.	.	.	.	8g#/	.	8ddd#\	.
.	.	.	.	.	.	8e/	.	8eee\	.
(8EE/	.	(8G#/	.	(8B/	.	8d/J	.	8fff\J)	.
=88	=88	=88	=88	=88	=88	=88	=88	=88	=88
8AA/L	.	8A/L	.	8c/L	.	4c/)	.	[2eee\	.
8C/	.	8E/	.	8A/	.	.	.	.	.
8BB/	.	8G#/	.	8B/	.	8r	.	.	.
8AA/J)	.	8A/J)	.	8c/J)	.	(8cc\	.	.	.
4.EE/	.	4.G#/	.	4.B/	.	8b/L	.	(8eee\L]	.
.	.	.	.	.	.	8g#/	.	8ddd#\	.
.	.	.	.	.	.	8e/	.	8eee\	.
8EE/	.	8G#/	.	8B/	.	8d/J)	.	8fff\J)	.
=89	=89	=89	=89	=89	=89	=89	=89	=89	=89
4AA'/	.	8A\L	.	8c'\L	.	8c'/L	.	8eee'\L	.
.	.	8e'\	.	8a'\	.	8dd'/	.	(8ddd#\	.
4EE'/	.	8e'\	.	8g#'\	.	8dd'/	.	8eee\)	.
.	.	8e'\J	.	8g#'\J	.	8dd'/J	.	(8fff\J	.
4AA'/	.	8e'/L	.	8a'\L	.	8cc'\L	.	8eee\L)	.
.	.	8e'/	.	8a'\	.	8cc'\	.	(8ddd#\	.
4EE'/	.	8E'/	.	8g#'\	.	8dd'\	.	8eee\)	.
.	.	8E'/J	.	8g#'\J	.	8dd'\J	.	(8fff\J	.
=90	=90	=90	=90	=90	=90	=90	=90	=90	=90
4AA'/	.	4A'/	.	8a'\L	.	8e'/ 8cc'/L	.	8eee\L)	.
.	.	.	.	8a'\	.	8e'/ 8cc'/	.	(8ddd#\	.
4EE'/	.	4E'/	.	8g#'\	.	8e'/ 8ee'/	.	8eee\)	.
.	.	.	.	8g#'\J	.	8e'/ 8dd'/J	.	(8fff\J	.
4AA'/	.	4A'/	.	8a'\L	.	8e'/ 8cc'/L	.	8eee\L)	.
.	.	.	.	8a'\	.	8e'/ 8cc'/	.	(8ddd#\	.
4EE'/	.	4E'/	.	8g#'\	.	8e'/ 8dd'/	.	8eee\)	.
.	.	.	.	8g#'\J	.	8e'/ 8dd'/J	.	(8fff\J	.
=91	=91	=91	=91	=91	=91	=91	=91	=91	=91
4AA'/	ff	4A/	ff	4a\	ff	4e/ 4cc/	ff	12eee\L)	ff
.	.	.	.	.	.	.	.	12eee'\	.
.	.	.	.	.	.	.	.	12dddn'\J	.
4r	.	4r	.	4r	.	4r	.	12ccc'\L	.
.	.	.	.	.	.	.	.	12bb'\	.
.	.	.	.	.	.	.	.	12aa'\J	.
2r	.	2r	.	2r	.	2r	.	12gg#'\L	.
.	.	.	.	.	.	.	.	12ff'\	.
.	.	.	.	.	.	.	.	12ee'\J	.
.	.	.	.	.	.	.	.	12dd'\L	.
.	.	.	.	.	.	.	.	12cc'\	.
.	.	.	.	.	.	.	.	12b'\J	.
=92	=92	=92	=92	=92	=92	=92	=92	=92	=92
12A'\L	ff	12a'\L	ff	12a'\L	ff	12a'\L	ff	12a'\L	ff
12e'\	.	12ee'\	.	12ee'\	.	12ee'\	.	12ee'\	.
12d'\J	.	12dd'\J	.	12dd'\J	.	12dd'\J	.	12dd'\J	.
12c'\L	.	12cc'\L	.	12cc'\L	.	12cc\L	.	12cc'\L	.
12B'\	.	12b'\	.	12b'\	.	12b'\	.	12b'\	.
12A'\J	.	12a'\J	.	12a'\J	.	12a'\J	.	12a'\J	.
12G#'\L	.	12g#'\L	.	12g#'\L	.	12g#'/L	.	12g#'/L	.
12F'\	.	12f'\	.	12f'\	.	12f'/	.	12f'/	.
12E\J	.	12e'\J	.	12e'\J	.	12e'/J	.	12e'/J	.
12D'/L	.	12d'\L	.	12d'\L	.	12d'/L	.	12d'/L	.
12C'/	.	12c'\	.	12c'\	.	12c'/	.	12c'/	.
12BB'/J	.	12B'\J	.	12B'\J	.	12B'/J	.	12B'/J	.
=93	=93	=93	=93	=93	=93	=93	=93	=93	=93
(2.AA/	.	(2.A/	.	(2.A/	.	(2.A/	.	(2.A/	.
4GG#/	.	4G#/	.	4G#/	.	4G#/	.	4G#/	.
=94	=94	=94	=94	=94	=94	=94	=94	=94	=94
4AA/	.	4A/	.	4A/	.	4A/	.	4A/	.
4GG#/	.	4G#/	.	4G#/	.	4G#/	.	4G#/	.
4AA/	.	4A/	.	4A/	.	4A/	.	4A/	.
4BB/)	.	4B/	.	4B/)	.	4B/	.	4B/)	.
=95	=95	=95	=95	=95	=95	=95	=95	=95	=95
*>A1	*>A1	*>A1	*>A1	*>A1	*>A1	*>A1	*>A1	*>A1	*>A1
(2.C/	p	4c\)	p	(8c/L	p	4c/)	p	(2.c/	p
.	.	.	.	8Gn/	.	.	.	.	.
.	.	4r	.	8E/	.	4r	.	.	.
.	.	.	.	8G/J	.	.	.	.	.
.	.	2r	.	8E/L	.	2r	.	.	.
.	.	.	.	8G/	.	.	.	.	.
4D/	.	.	.	8F/	.	.	.	4B/	.
.	.	.	.	8G/J)	.	.	.	.	.
=96	=96	=96	=96	=96	=96	=96	=96	=96	=96
4C/	.	1r	.	(8E/L	.	1r	.	4c/	.
.	.	.	.	8G/	.	.	.	.	.
4D/	.	.	.	8F/	.	.	.	4B/	.
.	.	.	.	8G/J	.	.	.	.	.
4C/	.	.	.	8E/L	.	.	.	4c/	.
.	.	.	.	8G/	.	.	.	.	.
4BB/)	.	.	.	8F/	.	.	.	4d/)	.
.	.	.	.	8G/J)	.	.	.	.	.
=97:|!	=97:|!	=97:|!	=97:|!	=97:|!	=97:|!	=97:|!	=97:|!	=97:|!	=97:|!
*>B	*>B	*>B	*>B	*>B	*>B	*>B	*>B	*>B	*>B
[1C	.	(2.E/	.	(2.Gn/	.	4c/	.	[1c	.
.	.	.	.	.	.	4r	.	.	.
.	.	.	.	.	.	2r	.	.	.
.	.	4D#/	.	4F#/	.	.	.	.	.
=98	=98	=98	=98	=98	=98	=98	=98	=98	=98
1C]	.	4E/	.	4G/	.	2r	.	1c]	.
.	.	4D#/	.	4F#/	.	.	.	.	.
.	.	4E/	.	4G/	.	4r	.	.	.
.	.	4F#/)	.	4A/)	.	(4d#/	.	.	.
=99	=99	=99	=99	=99	=99	=99	=99	=99	=99
[1C	.	(2.G/	.	(2.B-/	.	2.e/	.	[1c	.
.	.	4F#/	.	4A/	.	4d#/	.	.	.
=100	=100	=100	=100	=100	=100	=100	=100	=100	=100
1C]	.	4G/	.	4B-/	.	4e/	.	1c]	.
.	.	4F#/	.	4A/	.	4d#/	.	.	.
.	.	4G/	.	4B-/	.	4e/	.	.	.
.	.	4A/)	.	4d#/)	.	4f#/)	.	.	.
=101	=101	=101	=101	=101	=101	=101	=101	=101	=101
[1C	.	(2.B-/	.	(2.e\	.	(2.g/	.	[1cc	.
.	.	4A/	.	4d#\	.	4f#/	.	.	.
=102	=102	=102	=102	=102	=102	=102	=102	=102	=102
4C/]	.	4B-/	.	4e\	.	4g/	.	1cc_	.
(4C/	.	4A/	.	4d#\	.	4f#/	.	.	.
4BB-/	.	4G/	.	4e\	.	4g/	.	.	.
4AA/	.	4Fn/	.	4fn\	.	4a/	.	.	.
=103	=103	=103	=103	=103	=103	=103	=103	=103	=103
4EE/)	.	4C/)	.	4g\)	.	4b-/)	.	(2.cc\]	.
4r	.	4r	.	4r	.	4r	.	.	.
2r	.	2r	.	2r	.	2r	.	.	.
.	.	.	.	.	.	.	.	4cc#\	.
=104	=104	=104	=104	=104	=104	=104	=104	=104	=104
1r	.	1r	.	1r	.	1r	.	4dd\	.
.	.	.	.	.	.	.	.	4g/	.
.	.	.	.	.	.	.	.	4cc\	.
.	.	.	.	.	.	.	.	4b-\	.
=105	=105	=105	=105	=105	=105	=105	=105	=105	=105
4F'\	p	4F'/	p	4f'\	p	4c'/	p	4a/)	p
4r	.	4r	.	4r	.	4r	.	4r	.
2r	.	2r	.	2r	.	4r	.	12f'/L	.
.	.	.	.	.	.	.	.	(12cc/	.
.	.	.	.	.	.	.	.	12b-/J	.
.	.	.	.	.	.	12f'/L	.	12a'\L)	.
.	.	.	.	.	.	(12cc/	.	(12aa\	.
.	.	.	.	.	.	12b-/J	.	12gg\J	.
=106	=106	=106	=106	=106	=106	=106	=106	=106	=106
1r	.	1r	.	1r	.	12a'\L)	.	12ff'\L)	.
.	.	.	.	.	.	(12aa\	.	(12ccc\	.
.	.	.	.	.	.	12gg\J	.	12bb-\J	.
.	.	.	.	.	.	12ff'\L)	.	12aa'\L)	.
.	.	.	.	.	.	(12ff\	.	(12aa\	.
.	.	.	.	.	.	12ee\J	.	12gg\J	.
.	.	.	.	.	.	12dd'\L	.	12ff'\L)	.
.	.	.	.	.	.	(12dd\)	.	(12ff\	.
.	.	.	.	.	.	12cc\J	.	12ee\J	.
.	.	.	.	.	.	12b-'\L)	.	12dd'\L)	.
.	.	.	.	.	.	(12b-\	.	(12dd\	.
.	.	.	.	.	.	12a\J	.	12cc\J	.
=107	=107	=107	=107	=107	=107	=107	=107	=107	=107
4C'/	.	4c'\	.	4e'\	.	4g'/)	.	4b-'\)	.
4r	.	4r	.	4r	.	4r	.	4r	.
2r	.	2r	.	2r	.	4r	.	12g'/L	.
.	.	.	.	.	.	.	.	(12b-/	.
.	.	.	.	.	.	.	.	12a/J	.
.	.	.	.	.	.	12e'/L	.	12g'\L)	.
.	.	.	.	.	.	(12b-/	.	(12gg\	.
.	.	.	.	.	.	12a/J	.	12ff\J	.
=108	=108	=108	=108	=108	=108	=108	=108	=108	=108
1r	.	1r	.	1r	.	12g'\L)	.	12ee'\L)	.
.	.	.	.	.	.	(12gg\	.	(12bb-\	.
.	.	.	.	.	.	12ff\J	.	12aa\J	.
.	.	.	.	.	.	12ee'\L)	.	12gg'\L)	.
.	.	.	.	.	.	(12ee\	.	(12gg\	.
.	.	.	.	.	.	12dd\J	.	12ff\J	.
.	.	.	.	.	.	12cc'\L)	.	12ee'\L)	.
.	.	.	.	.	.	(12cc\	.	(12ee\	.
.	.	.	.	.	.	12b-\J	.	12dd\J	.
.	.	.	.	.	.	12a'/L)	.	12cc'\L)	.
.	.	.	.	.	.	(12a/	.	(12cc\	.
.	.	.	.	.	.	12g/J	.	12b-\J	.
=109	=109	=109	=109	=109	=109	=109	=109	=109	=109
4F'\	f	4F'/	f	4c'\	f	4f'/)	f	4a-'/)	f
4r	.	4r	.	4r	.	4r	.	4r	.
2r	.	2r	.	4r	.	12A-'/L	p	2r	.
.	.	.	.	.	.	(12c/	.	.	.
.	.	.	.	.	.	12B-/J	.	.	.
.	.	.	.	12F'/L	p	12A-'/L)	.	.	.
.	.	.	.	(12c/	.	(12a-/	.	.	.
.	.	.	.	12B-/J	.	12g/J	.	.	.
=110	=110	=110	=110	=110	=110	=110	=110	=110	=110
1r	.	1r	.	12A-'\L)	.	12f'/L)	.	12ff'\L	p
.	.	.	.	(12a-\	.	(12cc/	.	(12fff\	.
.	.	.	.	12g\J	.	12b-/J	.	12eee-\J	.
.	.	.	.	12f'\L)	.	12a-'/L)	.	12ddd-'\L)	.
.	.	.	.	(12f\	.	(12a-/	.	(12ddd-\	.
.	.	.	.	12e-\J	.	12g/J	.	12ccc\J	.
.	.	.	.	12d-'\L)	.	12f'/L)	.	12bb-'\L)	.
.	.	.	.	(12d-\	.	(12f/	.	(12bb-\	.
.	.	.	.	12c\J	.	12e-/J	.	12aa-\J	.
.	.	.	.	12B-/L)	.	12d-'/L)	.	12gg'\L)	.
.	.	.	.	(12B-/	.	(12d-/	.	(12gg\	.
.	.	.	.	12A-/J	.	12c/J	.	12ff\J	.
=111	=111	=111	=111	=111	=111	=111	=111	=111	=111
4C'/	f	4c'\	f	4G'/)	f	4B-'/)	.	4ee'\)	f
4r	.	4r	.	4r	.	4r	.	4r	.
2r	.	2r	.	12E'/L	p	12G'/L	p	2r	.
.	.	.	.	(12G/	.	(12B-/	.	.	.
.	.	.	.	12F/J	.	12A-/J	.	.	.
.	.	.	.	12E'/L)	.	12G'/L)	.	.	.
.	.	.	.	(12B-/	.	(12g/	.	.	.
.	.	.	.	12A-/J	.	12f/J	.	.	.
=112	=112	=112	=112	=112	=112	=112	=112	=112	=112
1r	.	1r	.	12G'\L)	.	12e'/L)	.	12ee'\L	.
.	.	.	.	(12g\	.	(12b-/	.	(12ee\	.
.	.	.	.	12f\J	.	12a-/J	.	12ff\J	.
.	.	.	.	12e'\L)	.	12g'/L)	.	12gg'\L)	.
.	.	.	.	(12b-\	.	(12g/	.	(12gg\	.
.	.	.	.	12a-\J	.	12f/J	.	12aa-\J	.
.	.	.	.	12g'\L)	.	12e'/L)	.	12bb-'\L)	.
.	.	.	.	12G\	.	12B-/	.	(12bb-\	.
.	.	.	.	12G\J	.	12B-/J	.	12ccc\J	.
.	.	.	.	12G/L	.	12B-/L	.	(12ddd'\L)	.
.	.	.	.	12G/	.	12B-/	.	12ddd\	.
.	.	.	.	12G/J	.	12B-/J	.	12eee\J)	.
=113	=113	=113	=113	=113	=113	=113	=113	=113	=113
*^	*	*^	*	*	*	*	*	*	*
[1AA-	(2.DD-\	.	[1A-	(2.D-\	.	4F'/	.	4A-'/	.	(2.fff\	.
.	.	.	.	.	.	4A-\ 4a-\	.	(2ff\	.	.	.
.	.	.	.	.	.	[2A-\ [2a-\	.	.	.	.	.
.	4CC\	.	.	4C\	.	.	.	4ee-\	.	4eee-\	.
=114	=114	=114	=114	=114	=114	=114	=114	=114	=114	=114	=114
1AA-]	4DD-\	.	1A-]	4D-\	.	1A-_ 1a-_	.	4ff\	.	4fff\	.
.	4CC\	.	.	4C\	.	.	.	4ee-\	.	4eee-\	.
.	4DD-\	.	.	4D-\)	.	.	.	4ff\	.	4fff\	.
.	4EE-\)	.	.	4E-\	.	.	.	4gg-\)	.	4ggg-\)	.
=115	=115	=115	=115	=115	=115	=115	=115	=115	=115	=115	=115
[1AA-	(2.CC\	.	[1A-	(2.C\	.	4A-\] 4a-\]	.	(2.ee-\	.	(2.eee-\	.
.	.	.	.	.	.	4A-\ 4a-\	.	.	.	.	.
.	.	.	.	.	.	[2A-\ [2a-\	.	.	.	.	.
.	4DD-\	.	.	4D-\	.	.	.	4ff\	.	4fff\	.
=116	=116	=116	=116	=116	=116	=116	=116	=116	=116	=116	=116
1AA-]	4EE-\	.	1A-]	4E-\	.	1A-_ 1a-_	.	4gg-\	.	4ggg-\	.
.	4DD-\	.	.	4D-\	.	.	.	4ff\	.	4fff\	.
.	4EE-\	.	.	4E-\	.	.	.	4gg-\	.	4ggg-\	.
.	4FF\)	.	.	4F\)	.	.	.	4aa-\)	.	4aaa-\)	.
*v	*v	*	*	*	*	*	*	*	*	*	*
*	*	*v	*v	*	*	*	*	*	*	*
=117	=117	=117	=117	=117	=117	=117	=117	=117	=117
[1DD- (1AA-	.	[1D- (1A-	.	4A-\] 4a-\]	.	4ff\	.	(2.fff\	.
.	.	.	.	4r	.	4r	.	.	.
.	.	.	.	2r	.	2r	.	.	.
.	.	.	.	.	.	.	.	4eee-\	.
=118	=118	=118	=118	=118	=118	=118	=118	=118	=118
*^	*	*	*	*	*	*	*	*	*
1AAn)	1DD-]	.	1D-] 1An)	.	1r	.	1r	.	4fff\	.
.	.	.	.	.	.	.	.	.	4eee\	.
.	.	.	.	.	.	.	.	.	4fff\	.
.	.	.	.	.	.	.	.	.	4fff#\)	.
*v	*v	*	*	*	*	*	*	*	*	*
=119	=119	=119	=119	=119	=119	=119	=119	=119	=119
[1CC# [1BB-	ff	[1C# [1B-	.	(2.en\	ff	(2.een\	ff	[1ggg	ff
.	.	.	.	4d#\	.	4dd#\	.	.	.
=120	=120	=120	=120	=120	=120	=120	=120	=120	=120
*	*	*^	*	*	*	*	*	*	*
1CC#] 1BB-]	.	1B-]	1C#]	.	4e\	.	4ee\	.	1ggg]	.
.	.	.	.	.	4d#\	.	4dd#\	.	.	.
.	.	.	.	.	4e\	.	4ee\	.	.	.
.	.	.	.	.	4f#\	.	4ff#\	.	.	.
*	*	*v	*v	*	*	*	*	*	*	*
=121	=121	=121	=121	=121	=121	=121	=121	=121	=121
4DDn'/ 4BBn'/	.	4Dn'/ 4Bn'/	f	4B'\ 4g'\)	f	4b'\ 4gg'\)	f	4ggg'\	.
4r	.	4r	.	4r	.	4r	.	4r	.
2r	.	2r	.	2r	.	12g'/L	p	12bn'\L	p
.	.	.	.	.	.	(12b/	.	(12dd\	.
.	.	.	.	.	.	12a/J	.	12cc\J	.
.	.	.	.	.	.	12g'/L)	.	12b'\L)	.
.	.	.	.	.	.	(12dd/	.	(12bb\	.
.	.	.	.	.	.	12cc/J	.	12aa\J	.
=122	=122	=122	=122	=122	=122	=122	=122	=122	=122
1r	.	1r	.	1r	.	12b'\L)	.	12gg'\L)	.
.	.	.	.	.	.	(12bb\	.	(12ddd\	.
.	.	.	.	.	.	12aa\J	.	12ccc\J	.
.	.	.	.	.	.	12gg'\L)	.	12bb'\L)	.
.	.	.	.	.	.	(12gg\	.	(12bb\	.
.	.	.	.	.	.	12ff#\J	.	12aa\J	.
.	.	.	.	.	.	12ee'\L)	.	12gg'\L)	.
.	.	.	.	.	.	(12ee\	.	(12gg\	.
.	.	.	.	.	.	12dd\J	.	12ff#\J	.
.	.	.	.	.	.	12cc'\L)	.	12ee'\L)	.
.	.	.	.	.	.	(12cc\	.	(12ee\	.
.	.	.	.	.	.	12b\J	.	12dd\J	.
=123	=123	=123	=123	=123	=123	=123	=123	=123	=123
12r	.	12r	.	1r	.	4a'/)	.	4cc'\)	.
(12D/L	p	(12d\L	p	.	.	.	.	.	.
12C#/J	.	12c#\J	.	.	.	.	.	.	.
4D'/)	.	4d'\)	.	.	.	4r	.	4r	.
2r	.	2r	.	.	.	12f#'/L	.	12a'\L	.
.	.	.	.	.	.	(12a'/	.	(12cc\	.
.	.	.	.	.	.	12g/J	.	12b\J	.
.	.	.	.	.	.	12f#'/L)	.	(12a'\L)	.
.	.	.	.	.	.	(12cc/	.	12aa\	.
.	.	.	.	.	.	12b/J	.	12gg\J)	.
=124	=124	=124	=124	=124	=124	=124	=124	=124	=124
1r	.	1r	.	1r	.	12a'\L)	.	12ff#'\L	.
.	.	.	.	.	.	(12aa\	.	&((12ccc\&)	.
.	.	.	.	.	.	12gg\J	.	12bb\J	.
.	.	.	.	.	.	12ff#'\L)	.	12aa'\L)	.
.	.	.	.	.	.	(12ff#\	.	(12aa\	.
.	.	.	.	.	.	12ee\J	.	12gg\J	.
.	.	.	.	.	.	12dd'\L	.	12ff#'\L)	.
.	.	.	.	.	.	(12dd\)	.	(12ff#\	.
.	.	.	.	.	.	12cc\J	.	12ee\J	.
.	.	.	.	.	.	12b'/L)	.	12dd'\L)	.
.	.	.	.	.	.	12b/	.	(12dd\	.
.	.	.	.	.	.	12a/J	.	12cc\J	.
=125	=125	=125	=125	=125	=125	=125	=125	=125	=125
4GG/	.	1r	.	1r	.	4g/	.	12b'/L)	.
.	.	.	.	.	.	.	.	12G/ 12fn/	.
.	.	.	.	.	.	.	.	12G/ 12f/J	.
4r	.	.	.	.	.	4r	.	12G/ 12f/L	.
.	.	.	.	.	.	.	.	12G/ 12f/	.
.	.	.	.	.	.	.	.	12G/ 12f/J	.
12GG'/L	.	.	.	.	.	2r	.	12G/ 12f/L	.
(12D/	.	.	.	.	.	.	.	12G/ 12f/	.
12C/J	.	.	.	.	.	.	.	12G/ 12f/J	.
12BB'/L	.	.	.	.	.	.	.	12G/ 12f/L	.
(12F/)	.	.	.	.	.	.	.	12G/ 12f/	.
12E-/J	.	.	.	.	.	.	.	12G/ 12f/J	.
=126	=126	=126	=126	=126	=126	=126	=126	=126	=126
12D'\L)	.	1r	.	12r	.	1r	.	12G/ 12f/L	.
(12d\	.	.	.	(12ff\L	p	.	.	12G/ 12f/	.
12c\J	.	.	.	12ee-\J	.	.	.	12G/ 12f/J	.
12B'\L)	.	.	.	12dd'\L)	.	.	.	12G/ 12f/L	.
(12B\	.	.	.	(12dd\	.	.	.	12G/ 12f/	.
12A-\J	.	.	.	12cc\J	.	.	.	12G/ 12f/J	.
12G'\L)	.	.	.	12b'\L)	.	.	.	12G/ 12f/L	.
(12G\	.	.	.	(12b\	.	.	.	(12ff\	.
12F\J	.	.	.	12a-\J	.	.	.	12gg\J	.
12E-'\L)	.	.	.	12g'\L)	.	.	.	12aa'\L)	.
(12E-\	.	.	.	(12g\	.	.	.	(12aa\	.
12D\J	.	.	.	12f\J	.	.	.	12bb\J	.
=127	=127	=127	=127	=127	=127	=127	=127	=127	=127
4C'/)	.	12r	.	4en'\)	.	12r	.	12ccc'\L)	.
.	.	(12g\L	p	.	.	(12bb-\L	p	12en/	.
.	.	12f\J	.	.	.	12aa\J	.	12e/J	.
4r	.	12en'\L)	.	4r	.	12gg'\L)	.	12e/L	.
.	.	(12e\	.	.	.	(12gg\	.	12e/	.
.	.	12d\J	.	.	.	12ff\J	.	12e/J	.
2r	.	12c'/L)	.	2r	.	12een'\L)	.	12e/L	.
.	.	(12c/	.	.	.	(12ee\	.	(12bb-\	.
.	.	12B-/J	.	.	.	12dd\J	.	12ccc\J	.
.	.	12A'/L	.	.	.	12cc'\L)	.	12ddd'\L)	.
.	.	(12A/)	.	.	.	(12cc\	.	(12ddd\	.
.	.	12G/J	.	.	.	12b-\J	.	12eee\J	.
=128	=128	=128	=128	=128	=128	=128	=128	=128	=128
12FF'/L	.	4F'/)	.	12r	.	4a'/)	.	12fff'\L)	.
(12c\	.	.	.	(12ee-\L	.	.	.	12e-/	.
12B-\J	.	.	.	12dd\J	.	.	.	12e-/J	.
12An'\L)	.	4r	.	12cc\L)	.	4r	.	12e-/L	.
(12A\	.	.	.	(12cc\	.	.	.	12e-/	.
12G\J	.	.	.	12b-\J	.	.	.	12e-/J	.
12F'\L)	.	2r	.	12an'\L)	.	2r	.	12e-\L	.
(12F\	.	.	.	(12a\	.	.	.	(12ee-\	.
12E-\J	.	.	.	12g\J	.	.	.	12ff\J	.
12D'\L)	.	.	.	12f'\L)	.	.	.	(12gg'\L)	.
(12D\	.	.	.	(12f\	.	.	.	12gg\	.
12C\J	.	.	.	12e-\J	.	.	.	12aa\J	.
=129	=129	=129	=129	=129	=129	=129	=129	=129	=129
4BB-'/)	f	1r	.	4d'\)	.	12r	.	12bb-'\L	.
.	.	.	.	.	.	(12aa-\L	.	12d/)	.
.	.	.	.	.	.	12gg\J	.	12d/J	.
4r	.	.	.	4r	.	12ff'\L)	.	12d/L	.
.	.	.	.	.	.	(12ff\	.	12d/	.
.	.	.	.	.	.	12ee-\J	.	12d/J	.
2r	.	.	.	2r	.	12dd'\L	.	12d/L	.
.	.	.	.	.	.	(12dd\)	.	12d/	.
.	.	.	.	.	.	12cc\J	.	12d/J	.
.	.	.	.	.	.	12b-'/L)	.	12d/L	.
.	.	.	.	.	.	(12b-/	.	12d/	.
.	.	.	.	.	.	12an/J	.	12d/J	.
=130	=130	=130	=130	=130	=130	=130	=130	=130	=130
12BB-/L	p	12f'\L	p	12r	.	12a-'/L)	.	12d'\L	.
12BB-/	.	(12f\	.	(12B-\L	.	(12a-/	.	(12dd\	.
12BB-/J	.	12e-'\J	.	12c\J	.	12g/J	.	12ee-\J	.
12BB-/L	.	12d\L)	.	12d'\L)	.	12f'/L)	.	12ff'\L)	.
12BB-/	.	(12d\	.	(12d\	.	(12f/	.	(12ff\	.
12BB-/J	.	12c\J	.	12e-\J	.	12e-/J	.	12gg\J	.
12BB-/L	.	12B-'/L)	.	12f'\L)	.	12d'/L)	.	12aa-'\L)	.
12BB-/	.	(12B-/	.	(12f\	.	(12d/	.	(12aa-\	.
12BB-/J	.	12A-/J	.	12g\J	.	12c/J	.	12bb-\J	.
12BB-/L	.	12G'/L)	.	12a-'\L)	.	12B-'/L)	.	12ccc'\L)	.
12BB-/	.	(12G/	.	12a-\	.	(12B-/	.	(12ccc\	.
12BB-/J	.	12F/J	.	12a-\J	.	12A-/J	.	12ddd\J	.
=131	=131	=131	=131	=131	=131	=131	=131	=131	=131
4EE-/	f	2.E-/	.	4g'\	f	4G'/)	f	4eee-'\)	f
4r	.	.	.	4r	.	4r	.	4r	.
2r	.	.	.	2r	.	2r	.	2r	.
.	.	4D/	.	.	.	.	.	.	.
=132	=132	=132	=132	=132	=132	=132	=132	=132	=132
1r	.	4E-/	.	(2.B-/	.	1r	.	1r	.
.	.	4D/	.	.	.	.	.	.	.
.	.	4E-/	.	.	.	.	.	.	.
.	.	4F/)	.	4A/	.	.	.	.	.
=133	=133	=133	=133	=133	=133	=133	=133	=133	=133
1r	.	(2.D/	.	4B-/	.	1r	.	1r	.
.	.	.	.	4A/	.	.	.	.	.
.	.	.	.	4B-/	.	.	.	.	.
.	.	4En/	.	4c/)	.	.	.	.	.
=134	=134	=134	=134	=134	=134	=134	=134	=134	=134
1r	.	4F/	.	(2.A-/	.	(2.f/	.	1r	.
.	.	4E/	.	.	.	.	.	.	.
.	.	4F/	.	.	.	.	.	.	.
.	.	4G/)	.	4B-/	.	4e/	.	.	.
=135	=135	=135	=135	=135	=135	=135	=135	=135	=135
1r	.	(2.A-/	.	2.c\	.	4f/	.	(2.cc\	.
.	.	.	.	.	.	4e/	.	.	.
.	.	.	.	.	.	4f/	.	.	.
.	.	4G/)	.	4d\)	.	4g/)	.	4b\	.
=136	=136	=136	=136	=136	=136	=136	=136	=136	=136
1r	.	1F#	.	2.e-\	.	1a	.	4cc\	.
.	.	.	.	.	.	.	.	4b\	.
.	.	.	.	.	.	.	.	4cc\	.
.	.	.	.	[4d\	.	.	.	4dd\)	.
=137	=137	=137	=137	=137	=137	=137	=137	=137	=137
2r	.	[1G	.	(4d\]	.	(4f/	.	(2.b\	.
.	.	.	.	4c#\	.	4e/	.	.	.
4GG/	p	.	.	4d\	.	4f/	.	.	.
4r	.	.	.	4e-\	.	4g/)	.	4cc\	.
=138	=138	=138	=138	=138	=138	=138	=138	=138	=138
1r	.	1G]	.	4f\	.	(2.a-/	.	4dd\	.
.	.	.	.	4e\	.	.	.	4cc#\	.
.	.	.	.	4f\	.	.	.	4dd\	.
.	.	.	.	4g\)	.	4bn/)	.	4ee-\)	.
=139	=139	=139	=139	=139	=139	=139	=139	=139	=139
2r	.	1C	.	(4e-\	.	(4g/	.	(4ccn\	.
.	.	.	.	4d\	.	4f/	.	4dd\	.
4CC/	.	.	.	4c\	.	4e-/	.	[2ee-\	.
4r	.	.	.	4B-/	.	4d/	.	.	.
=140	=140	=140	=140	=140	=140	=140	=140	=140	=140
2r	.	1D	.	4A/	.	4c/	.	(4ee-\])	.
.	.	.	.	4G/	.	4B-/	.	4cc#\	.
4DD/	.	.	.	4F#/	.	4A/)	.	4dd\	.
4r	.	.	.	[4d\)	.	4f#/	.	4ccn\)	.
=141	=141	=141	=141	=141	=141	=141	=141	=141	=141
(2.GG/	f	(2.B-/	f	4d\]	f	12g'\L	f	4b-'\	f
.	.	.	.	.	.	(12dd\	.	.	.
.	.	.	.	.	.	12cc\J	.	.	.
.	.	.	.	4r	.	12b-'/L)	.	4dd'\ 4ddd'\	.
.	.	.	.	.	.	(12b-/	.	.	.
.	.	.	.	.	.	12a/J	.	.	.
.	.	.	.	12r	.	4g'/)	.	[2dd\ [2ddd\	.
.	.	.	.	12d/L	.	.	.	.	.
.	.	.	.	(12c/J	.	.	.	.	.
4FF#/	.	4A/	.	12B-'/L)	.	4d'/ 4dd'/	.	.	.
.	.	.	.	(12B-/	.	.	.	.	.
.	.	.	.	12A/J	.	.	.	.	.
=142	=142	=142	=142	=142	=142	=142	=142	=142	=142
4GG/	.	4B-/	.	4G'/)	.	[1d [1dd	.	1dd_ 1ddd_	.
4FF#/	.	4A/	.	4D'/ 4d'/	.	.	.	.	.
4GG/	.	4B-/	.	[2D/ [2d/	.	.	.	.	.
4AA/)	.	4c/)	.	.	.	.	.	.	.
=143	=143	=143	=143	=143	=143	=143	=143	=143	=143
(2.FF#/	.	(2.A/	.	4D/] 4d/]	.	12d'\] 12dd'\L]	.	4dd\] 4ddd\]	.
.	.	.	.	.	.	(12aa\	.	.	.
.	.	.	.	.	.	12gg\J	.	.	.
.	.	.	.	4r	.	12ff#'\L)	.	4dd'\ 4ddd'\	.
.	.	.	.	.	.	(12ff#\	.	.	.
.	.	.	.	.	.	12ee\J	.	.	.
.	.	.	.	12r	.	4dd'\)	.	2dd\ [2ddd\	.
.	.	.	.	(12a\L	.	.	.	.	.
.	.	.	.	12g\J)	.	.	.	.	.
4GG/	.	4B-/	.	&(12f#'\L&)	.	4d'/ 4dd'/	.	.	.
.	.	.	.	(12f#\	.	.	.	.	.
.	.	.	.	12e\J	.	.	.	.	.
=144	=144	=144	=144	=144	=144	=144	=144	=144	=144
4AA/	.	4c/	.	4d'\)	.	[1d [1dd	.	[1dd 1ddd_	.
4GG/	.	4B-/	.	4D'/ 4d'/	.	.	.	.	.
4AA/	.	4c/	.	[2D/ [2d/	.	.	.	.	.
4BB-/)	.	4d/)	.	.	.	.	.	.	.
=145	=145	=145	=145	=145	=145	=145	=145	=145	=145
4GG/	.	4Bn/	.	4D/] 4d/]	.	4d/] 4dd/]	.	4dd\] 4ddd\]	.
4r	.	(2B/	.	(2d\	.	(2ff\	.	(2aa-\	.
2r	.	.	.	.	.	.	.	.	.
.	.	4c/	.	4e-\	.	4ee-\	.	4gg\	.
=146	=146	=146	=146	=146	=146	=146	=146	=146	=146
4r	.	4d\	.	4f\	.	4dd\	.	4ff\	.
4GG/	p	4e-\	.	4g\	.	4cc\	.	4ee-\	.
2GG/	.	4f\)	.	4a\	.	4cc\	.	4dd\)	.
.	.	(4f\	.	4g\	.	4b\	.	(4dd\	.
=147	=147	=147	=147	=147	=147	=147	=147	=147	=147
(2.C/	f	4e-'\)	.	4g\)	.	12cc'\L)	.	4ee-'\)	.
.	.	.	.	.	.	(12gg\	f	.	.
.	.	.	.	.	.	12ff\J	.	.	.
.	.	(2E-/	f	4r	.	12ee-'\L)	.	4gg'\	.
.	.	.	.	.	.	(12ee-\	.	.	.
.	.	.	.	.	.	12dd\J	.	.	.
.	.	.	.	12r	.	4cc'\)	.	[2gg\	f
.	.	.	.	(12g\L	f	.	.	.	.
.	.	.	.	12f\J	.	.	.	.	.
4BB/	.	4D/	.	12e-'\L)	.	4g'/	.	.	.
.	.	.	.	(12e-\	.	.	.	.	.
.	.	.	.	12d\J	.	.	.	.	.
=148	=148	=148	=148	=148	=148	=148	=148	=148	=148
4C/	.	4E-/	.	4c'\)	.	[1g	f	1gg_	.
4BB/	.	4D/	.	4G'/	.	.	.	.	.
4C/	.	4E-/	.	[2G/	.	.	.	.	.
4D/)	.	4F/)	.	.	.	.	.	.	.
=149	=149	=149	=149	=149	=149	=149	=149	=149	=149
(2.BB/	.	(2.D/	.	4G/]	.	12g/L]	.	4gg\]	.
.	.	.	.	.	.	(12dd/	.	.	.
.	.	.	.	.	.	12cc/J	.	.	.
.	.	.	.	4r	.	12bn'/L)	.	4gg'\	.
.	.	.	.	.	.	(12b/	.	.	.
.	.	.	.	.	.	12an/J	.	.	.
.	.	.	.	12r	.	4g'/)	.	[2gg\	.
.	.	.	.	(12d/L	.	.	.	.	.
.	.	.	.	12c/J	.	.	.	.	.
4C/	.	4E-/	.	12Bn'/L)	.	4g'/	.	.	.
.	.	.	.	(12B/	.	.	.	.	.
.	.	.	.	12An/J	.	.	.	.	.
=150	=150	=150	=150	=150	=150	=150	=150	=150	=150
4D/	.	4F/	.	4G'/)	.	[1g	.	1gg_	.
4C/	.	4E-/	.	4G'/	.	.	.	.	.
4D/	.	4F/	.	[2G/	.	.	.	.	.
4E-/)	.	4G/)	.	.	.	.	.	.	.
=151	=151	=151	=151	=151	=151	=151	=151	=151	=151
4C/	.	4En/	.	4G/]	.	4g/]	.	4gg\]	.
4r	.	(2e\	.	(2g\	.	(2bb\	.	(2ddd-\	.
2r	.	.	.	.	.	.	.	.	.
.	.	4f\	.	4a-\	.	4aa-\	.	4ccc\	.
=152	=152	=152	=152	=152	=152	=152	=152	=152	=152
4r	.	4g\	.	4b-\	.	4gg\	.	4bb-\	.
4C/	.	4a-\	.	4cc\	.	[4ff\	.	4aa-\	.
2C/	.	4b-\	.	4dd-\	.	4ff\]	.	4gg\)	.
.	.	(4b-\)	.	4cc\)	.	4ee\	.	(4gg\	.
=153	=153	=153	=153	=153	=153	=153	=153	=153	=153
12FF'/L	.	4a-'\)	.	4cc\	.	4ff\)	.	2.ff\	.
(12C/	.	.	.	.	.	.	.	.	.
12BB-/J	.	.	.	.	.	.	.	.	.
12AA-'/L)	.	4C'/ 4c'/	.	(2a-\	.	(2cc\	.	.	.
(12AA-/	.	.	.	.	.	.	.	.	.
12GG/J	.	.	.	.	.	.	.	.	.
4FF'/)	.	[2C/ [2c/	.	.	.	.	.	.	.
4r	.	.	.	4g\	.	4b-\	.	4ee\	.
=154	=154	=154	=154	=154	=154	=154	=154	=154	=154
4r	.	1C_ 1c_	.	4a-\	.	4cc\	.	4ff\	.
4CC'/	.	.	.	4g\	.	4b-\	.	4ee\	.
[2CC/	.	.	.	4a-\	.	4cc\	.	4ff\	.
.	.	.	.	4b-\)	.	4dd-\)	.	4gg\)	.
=155	=155	=155	=155	=155	=155	=155	=155	=155	=155
12CC'/L]	.	4C/] 4c/]	.	(2.g\	.	(2.b-\	.	(2.ee\	.
(12G\	.	.	.	.	.	.	.	.	.
12F\J	.	.	.	.	.	.	.	.	.
12E'\L)	.	4C'/ 4c'/	.	.	.	.	.	.	.
(12E\	.	.	.	.	.	.	.	.	.
12D\J	.	.	.	.	.	.	.	.	.
4C'/)	.	[2C/ [2c/	.	.	.	.	.	.	.
4r	.	.	.	4a-\	.	4cc\	.	4ff\	.
=156	=156	=156	=156	=156	=156	=156	=156	=156	=156
4r	.	1C_ 1c_	.	4b-\	.	4dd-\	.	4gg\	.
4CC'/	.	.	.	4a-\	.	4cc\	.	4ff\	.
[2CC/	.	.	.	4b-\	.	4ee\	.	4gg\	.
.	.	.	.	4cc\)	.	4ff\)	.	4aa-\)	.
=157	=157	=157	=157	=157	=157	=157	=157	=157	=157
12CC'/L]	.	4C/] 4c/]	.	(4a-\	.	(4cc\	.	(4ff\	.
(12C/	.	.	.	.	.	.	.	.	.
12BB-/J	.	.	.	.	.	.	.	.	.
12AA-'/L)	.	4cc'\	.	4g\	.	4b-\	.	4ee\	.
(12AA-/	.	.	.	.	.	.	.	.	.
12GG/J	.	.	.	.	.	.	.	.	.
4FF'/)	.	[2cc\	.	4a-\	.	4cc\	.	4ff\	.
4r	.	.	.	4b-\	.	4ee\	.	4gg\	.
=158	=158	=158	=158	=158	=158	=158	=158	=158	=158
12r	.	4cc\]	.	4cc\	.	4ff\	.	4aa-\	.
(12c\L	.	.	.	.	.	.	.	.	.
12B-\J	.	.	.	.	.	.	.	.	.
12A-'\L)	.	4c'\	.	4b-\	.	4ee\	.	4gg\	.
(12A-\	.	.	.	.	.	.	.	.	.
12G\J	.	.	.	.	.	.	.	.	.
4F'\)	.	[2c\	.	4cc\	.	4ff\	.	4aa-\	.
4r	.	.	.	4dd\	.	4aa-\)	.	4bb\	.
=159	=159	=159	=159	=159	=159	=159	=159	=159	=159
12r	.	12c/L]	.	4ee-\	.	4gg\	.	4ccc\	.
(12GG/L	.	(12G/	.	.	.	.	.	.	.
12FF/J	.	12F/J	.	.	.	.	.	.	.
(12EE-'/L)	.	12E-'/L)	.	4ff\	.	2gg\	.	4bb\	.
12EE-/	.	(12E-/	.	.	.	.	.	.	.
12DD/J	.	12D/J	.	.	.	.	.	.	.
4CC'/)	.	4C'/)	.	4ee-\	.	.	.	4ccc\	.
(4BB/	.	(4f\	.	4dd\	.	[4gg\	.	4ddd\	.
=160	=160	=160	=160	=160	=160	=160	=160	=160	=160
4C/	.	4e-\)	.	4cc\)	.	4gg\]	.	4eee-\	.
4BB-/	.	2C/ 2c/	.	2cc\	.	(4ee\	.	4eeen\	.
4AA/	.	.	.	.	.	4ff\	.	4fff\	.
4AA-/)	.	(4C/ 4c/	.	(4cc\	.	4ff#\	.	4fff#\	.
=161	=161	=161	=161	=161	=161	=161	=161	=161	=161
12GG/L	.	4D/) 4B/	f	4d\ 4bn\)	f	4gg\)	f	4ggg\)	f
12GG/	.	.	.	.	.	.	.	.	.
12GG/J	.	.	.	.	.	.	.	.	.
12GG/L	.	4r	.	4r	.	4r	.	4r	.
12GG/	.	.	.	.	.	.	.	.	.
12GG/J	.	.	.	.	.	.	.	.	.
2GG/	.	2r	.	2r	.	2r	.	2r	.
=162	=162	=162	=162	=162	=162	=162	=162	=162	=162
2GG/	.	(2C/	.	(2E-/	p	(2A-/	p	2r	.
2GG/	.	2C#/	.	2En/	.	2An/	.	([2gg\	p
=163	=163	=163	=163	=163	=163	=163	=163	=163	=163
2GG/	.	2D/)	.	2F/)	.	2B-/	.	2gg\]	.
2GG/	.	(2D/	.	(2F/	.	2Bn/	.	[2ff\)	.
=164	=164	=164	=164	=164	=164	=164	=164	=164	=164
2GG/	.	(4E-'/)	.	4G'/)	.	4c'/)	.	(4ff\]	.
.	.	4E-/	.	(4G/	.	(4c/	.	4ee-\	.
2FF/	.	4F/	.	4A-/	.	4d/	.	4dd\	.
.	.	4F#/	.	4An/	.	4e-/	.	4cc\	.
=165	=165	=165	=165	=165	=165	=165	=165	=165	=165
2GG/	p	4G'/)	p	4B'/)	p	4d'/)	p	4b\)	p
.	.	4r	.	4r	.	(4B/	.	4r	.
2GG/	.	2r	.	2r	.	4d/	.	[2ggg\	.
.	.	.	.	.	.	4g/)	.	.	.
=166	=166	=166	=166	=166	=166	=166	=166	=166	=166
2GG/	.	(2C/	.	(2E-/	.	(4a-/	.	2ggg\]	.
.	.	.	.	.	.	4A-/	.	.	.
2GG/	.	2C#/	.	2En/	.	4An/	.	[2gg\	.
.	.	.	.	.	.	4an/	.	.	.
=167	=167	=167	=167	=167	=167	=167	=167	=167	=167
2GG/	.	2D/)	.	2F/)	.	4b-/	.	4gg\]	.
.	.	.	.	.	.	4B-/	.	2ff\	.
2GG/	.	(2D/	.	(2F/	.	4Bn/	.	.	.
.	.	.	.	.	.	4bn/	.	[4fff\	.
=168	=168	=168	=168	=168	=168	=168	=168	=168	=168
2GG/	.	4E-'/)	.	4G'/)	.	4c'/)	.	(4fff\]	.
.	.	(4E-/	.	(4G/	.	(4cc\	.	4eee-\	.
2GG/	.	4F/	.	4A-/	.	4dd\	.	4ddd\	.
.	.	4F#/)	.	4An/)	.	4ee-\)	.	4ccc\)	.
=169	=169	=169	=169	=169	=169	=169	=169	=169	=169
4GG/	p	12G/L	p	12Bn/L	p	12dd/L	p	12bb'\L	p
.	.	12G/	.	12B/	.	12d/	.	12ddd'\	.
.	.	12G/J	.	12B/J	.	12d/J	.	12ccc'\J	.
4r	.	12G/L	.	12B/L	.	12d/L	.	12bb'\L	.
.	.	12G/	.	12B/	.	12d/	.	12aa'\	.
.	.	12G/J	.	12B/J	.	12d/J	.	12gg'\J	.
2r	.	12G/L	.	12B/L	.	12d/L	.	12ff#'\L	.
.	.	12G/	.	12B/	.	12d/	.	12een'\	.
.	.	12G/J	.	12B/J	.	12d/J	.	12dd'\J	.
.	.	12G/L	.	12B/L	.	12d/L	.	12cc\L	.
.	.	12G/	.	12B/	.	12d/	.	12b'\	.
.	.	12G/J	.	12B/J	.	12d/J	.	12a'\J	.
=170	=170	=170	=170	=170	=170	=170	=170	=170	=170
12G'\L	.	2G/	.	2B/	.	2d/	.	[1g	.
12d'\	.	.	.	.	.	.	.	.	.
12c'\J	.	.	.	.	.	.	.	.	.
12B'\L	.	.	.	.	.	.	.	.	.
12A'\	.	.	.	.	.	.	.	.	.
12G'\J	.	.	.	.	.	.	.	.	.
12F#'\L	.	2G/	.	2B/	.	2d/	.	.	.
12E'\	.	.	.	.	.	.	.	.	.
12D'\J	.	.	.	.	.	.	.	.	.
12C'/L	.	.	.	.	.	.	.	.	.
12BB'/	.	.	.	.	.	.	.	.	.
12AA'/J	.	.	.	.	.	.	.	.	.
=171	=171	=171	=171	=171	=171	=171	=171	=171	=171
[1GG	.	2G/	.	2B/	.	2d/	.	12g/L]	.
.	.	.	.	.	.	.	.	12ddd\	.
.	.	.	.	.	.	.	.	12ccc\J	.
.	.	.	.	.	.	.	.	12bb\L	.
.	.	.	.	.	.	.	.	12aa\	.
.	.	.	.	.	.	.	.	12gg\J	.
.	.	2G/	.	2B/	.	2d/	.	12ff#\L	.
.	.	.	.	.	.	.	.	12ee\	.
.	.	.	.	.	.	.	.	12dd\J	.
.	.	.	.	.	.	.	.	12cc\L	.
.	.	.	.	.	.	.	.	12b\	.
.	.	.	.	.	.	.	.	12a\J	.
=172	=172	=172	=172	=172	=172	=172	=172	=172	=172
12GG/L]	.	2G/	.	2B/	.	2d/	.	[1g	.
12d\	.	.	.	.	.	.	.	.	.
12c\J	.	.	.	.	.	.	.	.	.
12B\L	.	.	.	.	.	.	.	.	.
12A\	.	.	.	.	.	.	.	.	.
12G\J	.	.	.	.	.	.	.	.	.
12F#\L	.	2G/	.	2B/	.	2d/	.	.	.
12E\	.	.	.	.	.	.	.	.	.
12D\J	.	.	.	.	.	.	.	.	.
12C/L	.	.	.	.	.	.	.	.	.
12BB/	.	.	.	.	.	.	.	.	.
12AA/J	.	.	.	.	.	.	.	.	.
=173	=173	=173	=173	=173	=173	=173	=173	=173	=173
12GG/L	.	12G/L	.	12B\L	.	12d/L	.	12g/L]	.
12d\	.	12B/	.	12d\	.	12G/ 12f/	.	12fff\	.
12c\J	.	12B/J	.	12d\J	.	12G/ 12f/J	.	12eee\J	.
12B\L	.	12B/L	.	12d\L	.	12G/ 12f/L	.	12ddd\L	.
12A\	.	12B/	.	12d\	.	12G/ 12f/	.	12ccc\	.
12G\J	.	12B/J	.	12d\J	.	12G/ 12f/J	.	12bb\J	.
12Fn\L	.	12B/L	.	12d\L	.	12G/ 12f/L	.	12aa\L	.
12E\	.	12B/	.	12d\	.	12G/ 12f/	.	12gg\	.
12D\J	.	12B/J	.	12d\J	.	12G/ 12f/J	.	12ff\J	.
12C/L	.	12B/L	.	12d\L	.	12G/ 12f/L	.	12ee\L	.
12BB/	.	12B/	.	12d\	.	12G/ 12f/	.	12dd\	.
12AA/J	.	12B/J	.	12d\J	.	12G/ 12f/J	.	12cc\J	.
=174	=174	=174	=174	=174	=174	=174	=174	=174	=174
12GG/L	.	4B/	.	4d\	.	4G/ 4f/	.	12b\L	.
12d\	.	.	.	.	.	.	.	12ff\	.
12c\J	.	.	.	.	.	.	.	12ee\J	.
12B\L	.	4B/	.	4d\	.	4G/ 4f/	.	12dd\L	.
12A\	.	.	.	.	.	.	.	12cc\	.
12G\J	.	.	.	.	.	.	.	12b\J	.
12F\L	.	4B/	.	4d\	.	4G/ 4f/	.	12a/L	.
12E\	.	.	.	.	.	.	.	12g/	.
12D\J	.	.	.	.	.	.	.	12f/J	.
12C/L	.	4B/	.	4d\	.	4G/ 4f/	.	12e/L	.
12BB/	.	.	.	.	.	.	.	12d/	.
12AA/J	.	.	.	.	.	.	.	12c/J	.
=175	=175	=175	=175	=175	=175	=175	=175	=175	=175
12GG/L	f	4B/	f	4d\	f	4G/ 4f/	.	12B/L	.
12GG/	.	.	.	.	.	.	.	12B/	.
12GG/J	.	.	.	.	.	.	.	12B/J	.
12GG/L	.	4B/	.	4d\	.	4G/ 4f/	.	12d/L	.
12GG/	.	.	.	.	.	.	.	12d/	.
12GG/J	.	.	.	.	.	.	.	12d/J	.
12GG/L	.	4B/	.	4d\	.	4G/ 4f/	.	12f/L	.
12GG/	.	.	.	.	.	.	.	12f/	.
12GG/J	.	.	.	.	.	.	.	12f/J	.
12GG/L	.	4B/	.	4d\	.	4G/ 4f/	.	12b/L	.
12GG/	.	.	.	.	.	.	.	12b/	.
12GG/J	.	.	.	.	.	.	.	12b/J	.
=176	=176	=176	=176	=176	=176	=176	=176	=176	=176
12GG\L	.	12B\L	.	12d\L	.	12G/ 12f/L	.	12dd\L	.
12G\	.	12d\	.	12f\	.	12b/	.	12dd\	.
12G\J	.	12d\J	.	12f\J	.	12b/J	.	12dd\J	.
12G\L	.	12d\L	.	12f\L	.	12b/L	.	12ff\L	.
12G\	.	12d\	.	12f\	.	12b/	.	12ff\	.
12G\J	.	12d\J	.	12f\J	.	12b/J	.	12ff\J	.
12G\L	.	12d\L	.	12f\L	.	12b/L	.	12aa\L	.
12G\	.	12d\	.	12f\	.	12b/	.	12aa\	.
12G\J	.	12d\J	.	12f\J	.	12b/J	.	12aa\J	.
12G\L	.	12d\L	.	12f\L	.	12b/L	.	12aa\L	.
12G\	.	12d\	.	12f\	.	12b/	.	12aa\	.
12G\J	.	12d\J	.	12f\J	.	12b/J	.	12aa\J	.
=177	=177	=177	=177	=177	=177	=177	=177	=177	=177
[1G	ff	[1d	ff	[1f	ff	[1b	ff	[1aa	ff
=178	=178	=178	=178	=178	=178	=178	=178	=178	=178
1G]	.	1d]	.	1f]	.	1b]	.	1aa]	.
=179	=179	=179	=179	=179	=179	=179	=179	=179	=179
1r	.	1r	.	1r	.	1r	.	(1aa-	p
=180	=180	=180	=180	=180	=180	=180	=180	=180	=180
1r	.	1r	.	1r	.	1r	.	1gg)	.
=181	=181	=181	=181	=181	=181	=181	=181	=181	=181
(2.C/	p	1r	.	8E/L	p	1r	.	(2.c/	p
.	.	.	.	(8G/	.	.	.	.	.
.	.	.	.	8E/	.	.	.	.	.
.	.	.	.	8G/J	.	.	.	.	.
.	.	.	.	8E/L	.	.	.	.	.
.	.	.	.	8G/	.	.	.	.	.
4D/	.	.	.	8F/	.	.	.	4B/	.
.	.	.	.	8G/J	.	.	.	.	.
=182	=182	=182	=182	=182	=182	=182	=182	=182	=182
4C/	.	1r	.	8E/L	.	1r	.	4c/	.
.	.	.	.	8G/	.	.	.	.	.
4D/	.	.	.	8F/	.	.	.	4B/	.
.	.	.	.	8G/J	.	.	.	.	.
4C/	.	.	.	8E/L	.	.	.	4c/	.
.	.	.	.	8G/	.	.	.	.	.
4BB/)	.	.	.	8F/	.	.	.	4d/)	.
.	.	.	.	8G/J)	.	.	.	.	.
=183	=183	=183	=183	=183	=183	=183	=183	=183	=183
(2.C/	.	1r	.	(8E/L	.	4r	.	(2.c/	.
.	.	.	.	8G/	.	.	.	.	.
.	.	.	.	.	.	(ff#q/	.	.	.
.	.	.	.	8E/	.	4gg'\)	.	.	.
.	.	.	.	8G/J	.	.	.	.	.
.	.	.	.	.	.	(ff#q/	.	.	.
.	.	.	.	8E/L	.	4gg'\)	.	.	.
.	.	.	.	8G/	.	.	.	.	.
4D/	.	.	.	8F/	.	4r	.	4B/	.
.	.	.	.	8G/J	.	.	.	.	.
=184	=184	=184	=184	=184	=184	=184	=184	=184	=184
4C/	.	2r	.	8E/L	.	2r	.	4c/	.
.	.	.	.	8G/	.	.	.	.	.
4D/	.	.	.	8F/	.	.	.	4B/	.
.	.	.	.	8G/J	.	.	.	.	.
4C/	.	4r	.	8E/L	.	4r	.	4c/	.
.	.	.	.	8G/	.	.	.	.	.
.	.	.	.	.	.	(gg#q/	.	.	.
4AA/)	.	(4E/	p	8G/	.	4aa'\)	.	4c/)	.
.	.	.	.	8A/J)	.	.	.	.	.
=185	=185	=185	=185	=185	=185	=185	=185	=185	=185
(2.D\	.	4F/)	.	(8F/L	.	4r	.	(2.d/	.
.	.	.	.	8A/	.	.	.	.	.
.	.	.	.	.	.	(gg#q/	.	.	.
.	.	4r	.	8F/	.	4aa'\)	.	.	.
.	.	.	.	8A/J	.	.	.	.	.
.	.	.	.	.	.	(gg#q/	.	.	.
.	.	2r	.	8F/L	.	4aa'\)	.	.	.
.	.	.	.	8A/	.	.	.	.	.
4E\	.	.	.	8G/	.	4r	.	4c#/	.
.	.	.	.	8A/J	.	.	.	.	.
=186	=186	=186	=186	=186	=186	=186	=186	=186	=186
4D\	.	2r	.	8F/L	.	2r	.	4d/	.
.	.	.	.	8A/	.	.	.	.	.
4E\	.	.	.	8G/	.	.	.	4c#/	.
.	.	.	.	8A/J	.	.	.	.	.
4D\	.	4r	.	8F/L	.	4r	.	4d/	.
.	.	.	.	8A/	.	.	.	.	.
.	.	.	.	.	.	(bbq/	.	.	.
4C\)	.	(4G/	.	8B-/	.	4ccc'\)	.	4e/)	.
.	.	.	.	8c/J)	.	.	.	.	.
=187	=187	=187	=187	=187	=187	=187	=187	=187	=187
2.F\	.	4A/)	.	(8A/L	.	4r	.	(2.f/	.
.	.	.	.	8c/	.	.	.	.	.
.	.	.	.	.	.	(bbq/	.	.	.
.	.	4r	.	8A/	.	4ccc'\)	.	.	.
.	.	.	.	8c/J	.	.	.	.	.
.	.	.	.	.	.	(bbq/	.	.	.
.	.	2r	.	8A/L	.	4ccc'\)	.	.	.
.	.	.	.	8c/	.	.	.	.	.
4F#\	.	.	.	8A/	.	4r	.	4e-/	.
.	.	.	.	[8c/J)	.	.	.	.	.
=188	=188	=188	=188	=188	=188	=188	=188	=188	=188
2G\	.	1r	.	8c/L]	.	4r	.	2d/	.
.	.	.	.	(8c/	.	.	.	.	.
.	.	.	.	.	.	(ff#q/	.	.	.
.	.	.	.	8Bn/	.	4gg'\)	.	.	.
.	.	.	.	8A/J	.	.	.	.	.
2GG/	.	.	.	8B/L	.	4r	.	2g/)	.
.	.	.	.	8A/	.	.	.	.	.
.	.	.	.	.	.	(ff#q/	.	.	.
.	.	.	.	8G/	.	4gg'\)	.	.	.
.	.	.	.	8F/J	.	.	.	.	.
=189	=189	=189	=189	=189	=189	=189	=189	=189	=189
4C/	p	(2.c\	p	8E'/L)	p	(2.cc\	p	4c/	p
.	.	.	.	(8g\	.	.	.	.	.
4r	.	.	.	8e\	.	.	.	4r	.
.	.	.	.	8g\J	.	.	.	.	.
2r	.	.	.	8e\L	.	.	.	4r	.
.	.	.	.	8g\	.	.	.	.	.
.	.	4d\	.	8f\	.	4b\	.	(4bb\	.
.	.	.	.	8g\J)	.	.	.	.	.
=190	=190	=190	=190	=190	=190	=190	=190	=190	=190
1r	.	4c\	.	(8e\L	.	4cc\	.	4ccc\	.
.	.	.	.	8g\	.	.	.	.	.
.	.	4d\	.	8f\	.	4b\	.	4bb\	.
.	.	.	.	8g\J	.	.	.	.	.
.	.	4c\	.	8e\L	.	4cc\	.	4ccc\	.
.	.	.	.	8g\	.	.	.	.	.
.	.	4B\)	.	8f\	.	4dd\)	.	4ddd\)	.
.	.	.	.	8g\J)	.	.	.	.	.
=191	=191	=191	=191	=191	=191	=191	=191	=191	=191
4r	.	(2.c\	.	(8e\L	.	(2.cc\	.	(2.ccc\	.
.	.	.	.	8g\	.	.	.	.	.
4GG'/)	p	.	.	8e\	.	.	.	.	.
.	.	.	.	8g\J	.	.	.	.	.
4GG'/)	.	.	.	8e\L	.	.	.	.	.
.	.	.	.	8g\	.	.	.	.	.
4r	.	4d\	.	8f\	.	4b\	.	4bb\	.
.	.	.	.	8g\J)	.	.	.	.	.
=192	=192	=192	=192	=192	=192	=192	=192	=192	=192
2r	.	4c\	.	(8e\L	.	4cc\	.	4ccc\	.
.	.	.	.	8g\	.	.	.	.	.
.	.	4d\	.	8f\	.	4b\	.	4bb\	.
.	.	.	.	8g\J	.	.	.	.	.
4r	.	4c\	.	8e\L	.	4cc\	.	4ccc\	.
.	.	.	.	8g\	.	.	.	.	.
4AA'/)	.	4e\)	.	8g\	.	4cc#\)	.	4ccc#\)	.
.	.	.	.	8a\J)	.	.	.	.	.
=193	=193	=193	=193	=193	=193	=193	=193	=193	=193
4r	.	(2.d\	.	(8f\L	.	(2.dd\	.	(2.ddd\	.
.	.	.	.	8a\	.	.	.	.	.
4AA'/)	.	.	.	8f\	.	.	.	.	.
.	.	.	.	8a\J	.	.	.	.	.
4AA'/)	.	.	.	8f\L	.	.	.	.	.
.	.	.	.	8a\	.	.	.	.	.
4r	.	4e\	.	8g\	.	4cc#\	.	4ccc#\	.
.	.	.	.	8a\J)	.	.	.	.	.
=194	=194	=194	=194	=194	=194	=194	=194	=194	=194
2r	.	4d\	.	8f\L	.	4dd\	.	4ddd\	.
.	.	.	.	(8a\	.	.	.	.	.
.	.	4e\	.	8g\	.	4cc#\	.	4ccc#\	.
.	.	.	.	8a\J	.	.	.	.	.
4r	.	4d\	.	8f\L	.	4dd\	.	4ddd\	.
.	.	.	.	8a\	.	.	.	.	.
4C'/)	.	4g\)	.	8b-\	.	4ee\)	.	4eee\)	.
.	.	.	.	8cc\J)	.	.	.	.	.
=195	=195	=195	=195	=195	=195	=195	=195	=195	=195
4r	.	(2.f\	.	8a\L	.	(2.ff\	.	(2.fff\	.
.	.	.	.	(8cc\	.	.	.	.	.
4C'/)	.	.	.	8a\	.	.	.	.	.
.	.	.	.	8cc\J	.	.	.	.	.
4C'/)	.	.	.	8a\L	.	.	.	.	.
.	.	.	.	8cc\	.	.	.	.	.
4r	.	4f#\	.	8a\	.	4ee-\	.	4eee-\	.
.	.	.	.	[8cc\J)	.	.	.	.	.
=196	=196	=196	=196	=196	=196	=196	=196	=196	=196
4r	.	2g\	.	8cc\L]	.	2dd\	.	2ddd\	.
.	.	.	.	(8cc\	.	.	.	.	.
4GG'/)	.	.	.	8bn\	.	.	.	.	.
.	.	.	.	8a\J	.	.	.	.	.
4r	.	2G/	.	8b\L	.	2gg\	.	2ggg\	.
.	.	.	.	8a\	.	.	.	.	.
4GG'/)	.	.	.	8g\	.	.	.	.	.
.	.	.	.	8f\J)	.	.	.	.	.
=197	=197	=197	=197	=197	=197	=197	=197	=197	=197
4C'/	p	4c'\)	p	4e'\	p	4cc'\)	p	4ccc'\)	p
4r	.	4r	.	4r	.	4r	.	4r	.
2r	.	4r	.	4r	.	4r	.	12c'/L	.
.	.	.	.	.	.	.	.	(12e/	.
.	.	.	.	.	.	.	.	12d/J	.
.	.	[4C/	.	[4E/	.	12c'/L	.	12c'/L)	.
.	.	.	.	.	.	(12e/	.	(12g/	.
.	.	.	.	.	.	12d/J	.	12f/J	.
=198	=198	=198	=198	=198	=198	=198	=198	=198	=198
1r	.	4C/]	.	4E/]	.	12c'/L)	.	12e'/L)	.
.	.	.	.	.	.	(12ee\	.	(12gg\	.
.	.	.	.	.	.	12dd\J	.	12ff\J	.
.	.	4E'/	.	4G'/	.	12cc'\L)	.	12ee'\L)	.
.	.	.	.	.	.	(12cc\	.	(12ee\	.
.	.	.	.	.	.	12b\J	.	12dd\J	.
.	.	4G'/	.	4c'\	.	12a'/L)	.	12cc'\L)	.
.	.	.	.	.	.	(12a/	.	(12cc\	.
.	.	.	.	.	.	12g/J	.	12b\J	.
.	.	4c/	.	4e'\	.	12f'/L)	.	12a'/L)	.
.	.	.	.	.	.	(12f/	.	(12a/	.
.	.	.	.	.	.	12e/J	.	12g/J	.
=199	=199	=199	=199	=199	=199	=199	=199	=199	=199
4GG'/	f	4B'/	f	4f'\	f	4d'/)	f	4f'/)	f
4r	.	4r	.	4r	.	4r	.	4r	.
2r	.	4r	.	4r	.	4r	.	12b\L	p
.	.	.	.	.	.	.	.	(12dd\	.
.	.	.	.	.	.	.	.	12cc\J	.
.	.	[4G/	p	[4B/	p	12g'\L	p	12b'\L)	.
.	.	.	.	.	.	(12dd\	.	(12ff\	.
.	.	.	.	.	.	12cc\J	.	12ee\J	.
=200	=200	=200	=200	=200	=200	=200	=200	=200	=200
1r	.	4G/]	.	4B/]	.	12b'\L)	.	12dd'\L)	.
.	.	.	.	.	.	(12bb\	.	(12ddd\	.
.	.	.	.	.	.	12aa\J	.	12ccc\J	.
.	.	4B'/	.	4d\	.	12gg'\L)	.	12bb'\L)	.
.	.	.	.	.	.	(12gg\	.	(12bb\	.
.	.	.	.	.	.	12ff\J	.	12aa\J	.
.	.	4d'\	.	4g'\	.	12ee'\L)	.	12gg'\L)	.
.	.	.	.	.	.	(12ee\	.	(12gg\	.
.	.	.	.	.	.	12dd\J	.	12ff\J	.
.	.	4f'\	.	4g'\	.	(12cc'\L)	.	12ee'\L)	.
.	.	.	.	.	.	12cc\	.	(12ee\	.
.	.	.	.	.	.	12b\J	.	12dd\J	.
=201	=201	=201	=201	=201	=201	=201	=201	=201	=201
4C/	f	4e'\	f	4g'\	f	4cc'\)	f	4ee'\)	f
4r	.	4r	.	4r	.	4r	.	4r	.
4r	.	(12C'/L	p	4r	.	4r	.	4r	.
.	.	12E/	.	.	.	.	.	.	.
.	.	12D/J	.	.	.	.	.	.	.
12C\L	p	12C'/L)	.	[4g\	p	[4cc\	p	[4ee\	p
(12E\	.	(12G/	.	.	.	.	.	.	.
12D\J	.	12F/J	.	.	.	.	.	.	.
=202	=202	=202	=202	=202	=202	=202	=202	=202	=202
12C'\L)	.	12E'/L	.	4g\]	.	4cc\]	.	4ee\]	.
(12c\	.	(12e/)	.	.	.	.	.	.	.
12B\J	.	12d/J	.	.	.	.	.	.	.
12A'\L	.	(12c'/L)	.	4cc'\	.	4ee'\	.	4gg'\	.
(12A\)	.	12c/	.	.	.	.	.	.	.
12G\J	.	12B/J	.	.	.	.	.	.	.
12F'\L	.	12A'/L	.	4ee'\	.	4gg'\	.	4ccc'\	.
(12F\)	.	(12A/)	.	.	.	.	.	.	.
12E\J	.	12G/J	.	.	.	.	.	.	.
12D'\L)	.	12F'/L	.	4gg'\	.	4ccc'\	.	4eee'\	.
(12D\	.	(12F/)	.	.	.	.	.	.	.
12C\J	.	12E/J	.	.	.	.	.	.	.
=203	=203	=203	=203	=203	=203	=203	=203	=203	=203
4BB'/)	f	4D'/)	.	4gg'\	f	4ddd'\	f	4fff'\	f
4r	.	4r	.	4r	.	4r	.	4r	.
2r	.	4r	.	12B\L	p	4r	.	4r	.
.	.	.	.	(12d\	.	.	.	.	.
.	.	.	.	12c\J	.	.	.	.	.
.	.	12G'/L	p	12B'\L)	.	[4dd\	p	[4ff\	p
.	.	(12d/	.	(12f\	.	.	.	.	.
.	.	12c/J	.	12e\J	.	.	.	.	.
=204	=204	=204	=204	=204	=204	=204	=204	=204	=204
4GG/	p	12B'\L)	.	12d'\L)	.	4dd\]	.	4ff\]	.
.	.	(12b\	.	(12dd\	.	.	.	.	.
.	.	12a\J	.	12cc\J	.	.	.	.	.
4r	.	12g'\L)	.	12b'\L)	.	4ff'\	.	4bb'\	.
.	.	(12g\	.	(12b\	.	.	.	.	.
.	.	12f\J	.	12a\J	.	.	.	.	.
4r	.	12e'\L)	.	12g'\L)	.	4bb'\	.	4ddd'\	.
.	.	(12e\	.	(12g\	.	.	.	.	.
.	.	12d\J	.	12f\J	.	.	.	.	.
4G\	.	12c'\L)	.	12e'\L)	.	4ddd'\	.	4fff'\	.
.	.	(12c\	.	(12e\	.	.	.	.	.
.	.	12B\J)	.	12d\J)	.	.	.	.	.
=205	=205	=205	=205	=205	=205	=205	=205	=205	=205
[1G#	.	[1B	.	[1d [1dd	.	(2.ee\	.	(2.eee\	.
.	.	.	.	.	.	4dd#\	.	4ddd#\	.
=206	=206	=206	=206	=206	=206	=206	=206	=206	=206
2.G#\]	.	2.B/]	.	2.d\] 2.dd\]	.	4ee\	.	4eee\	.
.	.	.	.	.	.	4dd#\	.	4ddd#\	.
.	.	.	.	.	.	4ee\	.	4eee\	.
(4G#\	.	(4B/	.	(4b\	.	4ff\)	.	4fff\)	.
=207	=207	=207	=207	=207	=207	=207	=207	=207	=207
4A\	.	4c/	.	4cc\	.	(2.ee\	.	(2.eee\	.
4G#\	.	4B/	.	4b\	.	.	.	.	.
[2A\	.	[2c/	.	[2cc\	.	.	.	.	.
.	.	.	.	.	.	4dd#\	.	4ddd#\	.
=208	=208	=208	=208	=208	=208	=208	=208	=208	=208
2.A\])	.	2.c/])	.	2.cc\])	.	4ee\	.	4eee\	.
.	.	.	.	.	.	4dd#\	.	4ddd#\	.
.	.	.	.	.	.	4ee\	.	4eee\	.
(4A\	.	[4c/	.	(4cc\	.	4ff\)	.	4fff\)	.
=209	=209	=209	=209	=209	=209	=209	=209	=209	=209
4B-\	.	1c_	.	4g\	.	(2.ff\	.	(2.eee\	.
4A\	.	.	.	4f#\	.	.	.	.	.
[2B-\	.	.	.	[2g\	.	.	.	.	.
.	.	.	.	.	.	4dd#\	.	4ddd#\	.
=210	=210	=210	=210	=210	=210	=210	=210	=210	=210
2.B-\])	.	2.c/]	.	2.g\])	.	4ee\	.	4eee\	.
.	.	.	.	.	.	4cc\	.	4ccc\	.
.	.	.	.	.	.	4ddn\	.	4dddn\	.
(4B-\	.	[4c\	.	(4g\	.	4ee\)	.	4eee\)	.
=211	=211	=211	=211	=211	=211	=211	=211	=211	=211
2.A-\	p	2.c\]	p	2.fn\	p	(2.ff\	p	(2.fff\	p
4G\	.	4c\	.	4g\	.	4ee-\	.	4eee-\	.
=212	=212	=212	=212	=212	=212	=212	=212	=212	=212
2F\	.	(2c\	.	2a-\	.	2dd\	.	2ddd\	.
2F#\	.	2e-\	.	2an\	.	2cc\	.	2ccc\	.
=213	=213	=213	=213	=213	=213	=213	=213	=213	=213
4G\)	p	8d'/L)	p	8g'\)	p	8b'/L)	p	4bb'\)	p
.	.	8B/	.	8G'/L	.	8G/ 8d/	.	.	.
4r	.	8B/	.	8B'/	.	8G/ 8d/	.	4r	.
.	.	8B/J	.	8d'/J	.	8G/ 8d/J	.	.	.
2r	.	8B/L	.	8g'\L	.	8G/ 8d/L	.	2r	.
.	.	8B/	.	8b'\	.	8G/ 8d/	.	.	.
.	.	8B/	.	(8dd\	.	8G/ 8d/	.	.	.
.	.	8B/J	.	8f\J)	.	8G/ 8d/J	.	.	.
=214	=214	=214	=214	=214	=214	=214	=214	=214	=214
4c'\	.	8c/L	.	4e-\	.	8G/ 8e-/L	.	8r	.
.	.	8c/	.	.	.	8G/ 8e-/	.	8c'/L	.
4G'\	.	8c/	.	4r	.	8G/ 8e-/	.	8e-'/	.
.	.	8c/J	.	.	.	8G/ 8e-/J	.	8g'/J	.
4E-\	.	8c/L	.	2r	.	8G/ 8e-/L	.	8cc\L	.
.	.	8c/	.	.	.	8G/ 8e-/	.	8ee-'\	.
4C/	.	8c/	.	.	.	8G/ 8e-/	.	(8gg\	.
.	.	8c/J	.	.	.	8G/ 8e-/J	.	8ee-\J	.
=215	=215	=215	=215	=215	=215	=215	=215	=215	=215
8GG'/L	.	8B/L	.	8B\L	.	8G/ 8d/L	.	4dd'\)	.
8BB'/	.	8B/	.	8d\	.	8g/	.	.	.
8D'/	.	8B/	.	8d\	.	8g/	.	4r	.
8G'/J	.	8B/J	.	8d\J	.	8g/J	.	.	.
8B'\L	.	8B/L	.	8d\L	.	8g/L	.	2r	.
8d'\	.	8B/	.	8d\	.	8g/	.	.	.
(8g\	.	8B/	.	8d\	.	8g/	.	.	.
8f\J)	.	8B/J	.	8d\J	.	8g/J	.	.	.
=216	=216	=216	=216	=216	=216	=216	=216	=216	=216
8e-'\L	.	8c/L	.	8e-\L	.	8g/L	.	8r	.
8c'\	.	8c/	.	8e-\	.	8g/	.	8cc'\L	.
8G'\	.	8c/	.	8e-\	.	8g/	.	8ee-'\	.
8E-\J	.	8c/J	.	8e-\J	.	8g/J	.	8gg'\J	.
8c'\L	.	8c/L	.	8e-\L	.	8g/L	.	8ccc'\L	.
8G'\	.	8c/	.	8e-\	.	8g/	.	8eee-'\	.
8E-'\	.	8c/	.	8e-\	.	8g/	.	(8ggg\	.
8C\J	.	8c/J	.	8e-\J	.	8g/J	.	8eee-\J	.
=217	=217	=217	=217	=217	=217	=217	=217	=217	=217
4GG'/	.	8B/L	.	8f\L	.	8g/L	.	8ddd'\L)	.
.	.	8B/	.	8d\	.	8g/	.	(8gg\	.
8r	.	8B/	.	8d\	.	8g/	.	8ggg\)	.
8G'\	.	8B/J	.	8f\J	.	8g/J	.	(8ddd\J	.
4c'\	.	8c/L	.	8e-\L	.	8g/L	.	8eee-\L)	.
.	.	8c/	.	8e-\	.	8g/	.	(8gg\	.
8r	.	8c/	.	8e-\	.	8g/	.	8ggg\)	.
8C'/	.	8c/J	.	8e-\J	.	8g/J	.	(8eee-\J	.
=218	=218	=218	=218	=218	=218	=218	=218	=218	=218
4GG'/	.	8B/L	.	8f\L	.	8g/L	.	8ddd\L)	.
.	.	8B/	.	8d\	.	8g/	.	8gg\	.
8r	.	8B/	.	8d\	.	8g/	.	8ggg\	.
8G'\	.	8B/J	.	8f\J	.	8g/J	.	(8ddd\J	.
4c'\	.	8c/L	.	8e-\L	.	8g/L	.	8eee-\L	.
.	.	8c/	.	8e-\	.	8g/	.	(8gg\)	.
8r	.	8c/	.	8e-\	.	8g/	.	8ggg\)	.
8C'/	.	8G/J	.	8c\J	.	8g/J	.	(8eee-\J	.
=219	=219	=219	=219	=219	=219	=219	=219	=219	=219
4GG'/	p	4B/	p	4d\	p	4g/	p	4ddd\)	.
4r	.	4r	.	4r	.	4r	.	8r	.
.	.	.	.	.	.	.	.	(8ggg\	p
2r	.	2r	.	2r	.	2r	.	4gg\)	.
.	.	.	.	.	.	.	.	8r	.
.	.	.	.	.	.	.	.	(8ff#\	.
=220	=220	=220	=220	=220	=220	=220	=220	=220	=220
1r	.	1r	.	1r	.	1r	.	4gg\)	.
.	.	.	.	.	.	.	.	8r	.
.	.	.	.	.	.	.	.	(8ff#\	pp
.	.	.	.	.	.	.	.	8gg\L	.
.	.	.	.	.	.	.	.	8ff#\	.
.	.	.	.	.	.	.	.	8gg\	.
.	.	.	.	.	.	.	.	8ff#\J)	.
=221	=221	=221	=221	=221	=221	=221	=221	=221	=221
1r	.	1r	.	(2cc\	pp	(2ee\	pp	(2gg\	.
.	.	.	.	2f\)	.	8ff\L	.	8aa\L	.
.	.	.	.	.	.	8ee\	.	8gg\	.
.	.	.	.	.	.	8dd\	.	8ffn\	.
.	.	.	.	.	.	8cc\J)	.	8een\J)	.
=222	=222	=222	=222	=222	=222	=222	=222	=222	=222
1r	.	1r	.	(2g\	.	(2.b\	.	(2.dd\	.
.	.	.	.	8a\L	.	.	.	.	.
.	.	.	.	8g\	.	.	.	.	.
.	.	.	.	8f\	.	4cc\)	.	4ee\)	.
.	.	.	.	8e\J)	.	.	.	.	.
=223	=223	=223	=223	=223	=223	=223	=223	=223	=223
1r	.	1r	.	(2.d\	.	(2dd\	.	(2ff\	.
.	.	.	.	.	.	8ee\L	.	8gg\L	.
.	.	.	.	.	.	&(8dd\&)	.	8ff\	.
.	.	.	.	4e\)	.	8cc\	.	8ee\	.
.	.	.	.	.	.	8b\J)	.	8dd\J)	.
=224	=224	=224	=224	=224	=224	=224	=224	=224	=224
1r	.	1r	.	(2f\	.	(2.a/	.	(2.cc\	.
.	.	.	.	8g\L	.	.	.	.	.
.	.	.	.	8f\	.	.	.	.	.
.	.	.	.	8e\	.	4b/)	.	4dd\)	.
.	.	.	.	8d\J)	.	.	.	.	.
=225	=225	=225	=225	=225	=225	=225	=225	=225	=225
1r	.	1r	.	(2c\	.	[1cc	.	(2ee\	.
.	.	.	.	2cc\	.	.	.	4ff\	.
.	.	.	.	.	.	.	.	4ff#\	.
=226	=226	=226	=226	=226	=226	=226	=226	=226	=226
1r	.	1r	.	2e\)	.	2cc\]	.	4gg\	.
.	.	.	.	.	.	.	.	4gg#\)	.
.	.	.	.	[2f\	.	[2cc\	.	[2aa\	.
=227	=227	=227	=227	=227	=227	=227	=227	=227	=227
1r	.	4r	.	4f\]	.	4cc\]	.	(4aa\]	>
.	.	(4A/	>	(4f#\	>	(4cc\	>	4dd\)	.
.	.	4G/	.	4g\	.	4cc'\	.	(4dd'\	.
.	.	4F#/	.	4a\	.	4cc'\	.	4dd'\)	.
=228	=228	=228	=228	=228	=228	=228	=228	=228	=228
4r	.	4G/)	p	4g'\)	p	4b'\)	p	4dd'\	p
(4F\	p	2G/	.	(4B/	.	(4d/	.	4r	.
4E\	.	.	.	4c\	.	4e/	.	2r	.
4D\)	.	4G/	.	4d\)	.	4f/)	.	.	.
=229	=229	=229	=229	=229	=229	=229	=229	=229	=229
(2C/	p	[1G	p	(2e\	p	(2g/	p	1r	.
2E\)	.	.	.	8f\L	.	8a/L	.	.	.
.	.	.	.	8e\	.	8g/	.	.	.
.	.	.	.	8d\	.	8f/	.	.	.
.	.	.	.	8c\J)	.	8e/J)	.	.	.
=230	=230	=230	=230	=230	=230	=230	=230	=230	=230
(2G\	.	1G]	.	(2.B/	.	(2.d/	.	1r	.
8A\L	.	.	.	.	.	.	.	.	.
8G\	.	.	.	.	.	.	.	.	.
8F\	.	.	.	4c#/)	.	4e/)	.	.	.
8E\J)	.	.	.	.	.	.	.	.	.
=231	=231	=231	=231	=231	=231	=231	=231	=231	=231
(2.D\	.	[1G	.	(2d\	.	(2f/	.	1r	.
.	.	.	.	8e\L	.	8g/L	.	.	.
.	.	.	.	8d\	.	8f/	.	.	.
4E\)	.	.	.	8cn\	.	8e/	.	.	.
.	.	.	.	8B\J)	.	8d/J)	.	.	.
=232	=232	=232	=232	=232	=232	=232	=232	=232	=232
(2F\	.	1G_	.	(2.A/	.	(2.c/	.	1r	.
8G\L	.	.	.	.	.	.	.	.	.
8F\	.	.	.	.	.	.	.	.	.
8E-\	.	.	.	4B/	.	4d/	.	.	.
8D\J)	.	.	.	.	.	.	.	.	.
=233	=233	=233	=233	=233	=233	=233	=233	=233	=233
(2C/	.	4G/]	.	4c/)	.	4e-/)	.	(2eee-\	p
.	.	(4E-'/	.	4r	.	4r	.	.	.
8D-/L	.	4E-'/	.	2r	.	2r	.	8fff\L	.
8C/	.	.	.	.	.	.	.	8eee-\	.
8BB-/	.	4E-'/)	.	.	.	.	.	8ddd-\	.
8AA-/J)	.	.	.	.	.	.	.	8ccc\J)	.
=234	=234	=234	=234	=234	=234	=234	=234	=234	=234
(2.GG/	.	(4E-'/	.	(2e-\	.	(2ee-\	.	(2.bb-\	.
.	.	4E-'/	.	.	.	.	.	.	.
.	.	4E-'/	.	8f\L	.	8ff\L	.	.	.
.	.	.	.	8e-\	.	8ee-\	.	.	.
4AAn/)	.	4E-'/)	.	8d-\	.	8dd-\	.	4ccc\)	.
.	.	.	.	8c\J)	.	8cc\J)	.	.	.
=235	=235	=235	=235	=235	=235	=235	=235	=235	=235
*k[b-]	*k[b-]	*	*	*	*	*k[b-]	*k[b-]	*	*
(2BB-/	.	(4E-/	.	(2.B-/	.	(2.b-\	.	(2ddd-\	.
.	.	4E-'/	.	.	.	.	.	.	.
8C/L	.	4E-'/	.	.	.	.	.	8eee-\L	.
8BB-/	.	.	.	.	.	.	.	8ddd-\	.
8AA-/	.	4E-'/)	.	4c/)	.	4cc\)	.	8ccc\	.
8GG/J)	.	.	.	.	.	.	.	8bb-\J)	.
=236	=236	=236	=236	=236	=236	=236	=236	=236	=236
(2.FF/	.	(4E-'/	.	(2d-\	.	(2dd-\	.	(2.aa-\	.
.	.	4E-'/	.	.	.	.	.	.	.
.	.	4E-'/	.	8e-\L	.	8ee-\L	.	.	.
.	.	.	.	8d-\	.	8dd-\	.	.	.
4GG/)	.	4E-'/)	.	8c\	.	8cc\	.	4bb-\)	.
.	.	.	.	8B-\J)	.	8b-\J)	.	.	.
=237	=237	=237	=237	=237	=237	=237	=237	=237	=237
2AA-'/	.	2E-'/	.	2A-'/	.	4a-/	.	2ccc'\	.
.	.	.	.	.	.	2c/	.	.	.
2GG'/	.	2E-'/	.	2e-'\	.	.	.	2ccc'\	.
.	.	.	.	.	.	4g/	.	.	.
=238	=238	=238	=238	=238	=238	=238	=238	=238	=238
1FF#	.	(2.E-/	.	(2.e-\	.	(1an	.	(2.ccc\	.
.	.	8D/L	.	8d\L	.	.	.	4ddd\)	.
.	.	8C/J)	.	8c\J)	.	.	.	.	.
=239	=239	=239	=239	=239	=239	=239	=239	=239	=239
4GG/	f	4G'/	f	4g'\	f	4cc\)	f	(4.eee-\	f
4G'\	.	4c\	.	4e-'\	.	4g'/	.	.	.
.	.	.	.	.	.	.	.	8fff\	.
4G'\	.	4c'\	.	4e-'\	.	4g'/	.	4ggg\)	.
4G'\	.	4d'\	.	4f'\	.	4g'/	.	4bb'\	.
=240	=240	=240	=240	=240	=240	=240	=240	=240	=240
4C/	.	4c\	.	4e-\	.	4g'/	.	4ccc'\	.
4r	.	4r	.	4r	.	4r	.	4r	.
(2B-\	pp	(2d\	pp	2r	.	[2g/	pp	(2gg\	pp
=241	=241	=241	=241	=241	=241	=241	=241	=241	=241
4c'\)	.	4e-'\)	.	1r	.	4g'/]	.	4ee-'\)	.
4r	.	4r	.	.	.	4r	.	4r	.
(2G\	.	(2B-'/	.	.	.	[2e-/	.	(2ee-\	.
=242	=242	=242	=242	=242	=242	=242	=242	=242	=242
4A-'\)	.	4c'/)	.	1r	.	4e-'/]	.	4cc\)	.
4r	.	4r	.	.	.	4r	.	4r	.
(2En\	.	(2G/	.	.	.	[2c/	.	(2cc\	.
=243	=243	=243	=243	=243	=243	=243	=243	=243	=243
4F'\	.	4A-'/)	.	[2c/	.	4c'/]	.	4a-/)	.
4A-'\)	.	4d'\	.	.	.	4c'/	.	4f'/	.
4G'\	.	4e-'\	.	8c/L]	.	4c'/	.	4g'/	.
.	.	.	.	8c'/	.	.	.	.	.
4GG'/	.	4d\	.	8G'/	.	4B-'/	.	4g'/	.
.	.	.	.	8F'/J	.	.	.	.	.
=244	=244	=244	=244	=244	=244	=244	=244	=244	=244
4C/	p	4en'\	p	12E'/L	p	12c'/L	p	4c/	p
.	.	.	.	(12e/	.	(12g/	.	.	.
.	.	.	.	12d#/J	.	12f#/J	.	.	.
4r	.	4r	.	12e'/L)	.	12g'/L)	.	4r	.
.	.	.	.	12dn'/	.	12fn'/	.	.	.
.	.	.	.	12c'/J	.	12en'/J	.	.	.
12G\L	.	12Bn/L	.	4B'/	.	4d'/	.	12gg\L	.
12G\	.	12B/	.	.	.	.	.	12bb\	.
12G\J	.	12B/J	.	.	.	.	.	12ddd\J	.
12G\L	.	12B/L	.	4r	.	4r	.	12ggg\L	.
12An\	.	12c/	.	.	.	.	.	12fff#\	.
12B-\J	.	12d/J	.	.	.	.	.	12fffn\J	.
=245	=245	=245	=245	=245	=245	=245	=245	=245	=245
*k[]	*k[]	*	*	*	*	*k[]	*k[]	*	*
4c\	.	4e\	.	12c\L	.	12e/L	.	4eeen\	.
.	.	.	.	12e\	.	12a/	.	.	.
.	.	.	.	12a\J	.	12cc/J	.	.	.
4r	.	4r	.	12cc\L	.	12ee\L	.	4r	.
.	.	.	.	12b\	.	12dd\	.	.	.
.	.	.	.	12a\J	.	12cc\J	.	.	.
12E\L	.	12G#/L	.	4g#\	.	4b\	.	12ee\L	.
12E\	.	12G#/	.	.	.	.	.	12gg#\	.
12E\J	.	12G#/J	.	.	.	.	.	12bb\J	.
12E\L	.	12G#/L	.	4r	.	4r	.	12eee\L	.
12F#\	.	12A/	.	.	.	.	.	12ddd#\	.
12G#\J	.	12B/J	.	.	.	.	.	12dddn\J	.
=246	=246	=246	=246	=246	=246	=246	=246	=246	=246
4A\	.	4c/	.	12A\L	.	12c/L	.	4ccc\	.
.	.	.	.	12c\	.	12f/	.	.	.
.	.	.	.	12f\J	.	12a/J	.	.	.
4r	.	4r	.	12a\L	.	12cc/L	.	4r	.
.	.	.	.	12g\	.	12b-/	.	.	.
.	.	.	.	12f\J	.	12a/J	.	.	.
12C/L	.	12E/L	.	4e\	.	4g/	.	12cc\L	.
12C/	.	12E/	.	.	.	.	.	12ee\	.
12C/J	.	12E/J	.	.	.	.	.	12gg\J	.
12C/L	.	12E/L	.	4r	.	4r	.	12ccc\L	.
12D/	.	12F/	.	.	.	.	.	12bb\	.
12E/J	.	12Gn/J	.	.	.	.	.	12bb-\J	.
=247	=247	=247	=247	=247	=247	=247	=247	=247	=247
4F\	.	4A/	.	4r	.	4r	.	12aa\L	.
.	.	.	.	.	.	.	.	12gg#\	.
.	.	.	.	.	.	.	.	12aa\J	.
4r	.	4r	.	12c\L	.	12e/L	.	12ccc\L	.
.	.	.	.	12d\	.	12f/	.	12bbn\	.
.	.	.	.	12e\J	.	12g/J	.	12bb-\J	.
4r	.	4r	.	4f\	.	4a/	.	12aa\L	.
.	.	.	.	.	.	.	.	12gg#\	.
.	.	.	.	.	.	.	.	12aa\J	.
12C\L	.	12E/L	.	4r	.	4r	.	12ccc\L	.
12D\	.	12F/	.	.	.	.	.	12bbn\	.
12E\J	.	12G/J	.	.	.	.	.	12bb-\J	.
=248	=248	=248	=248	=248	=248	=248	=248	=248	=248
4F\	.	4A/	.	4r	.	4r	.	12aa\L	.
.	.	.	.	.	.	.	.	12gg#\	.
.	.	.	.	.	.	.	.	12aa\J	.
4r	.	4r	.	12c\L	.	12e/L	.	12ccc\L	.
.	.	.	.	12d\	.	12f/	.	12bbn\	.
.	.	.	.	12e\J	.	12g/J	.	12bb-\J	.
4r	.	4r	.	4f\	.	4a/	.	12aa\L	.
.	.	.	.	.	.	.	.	12gg#\	.
.	.	.	.	.	.	.	.	12bbn\J	.
12G\L	.	12B\L	.	4r	.	4r	.	12aa\L	.
12A\	.	12c\	.	.	.	.	.	12ggn\	.
12B\J	.	12d\J	.	.	.	.	.	12ff\J	.
=249	=249	=249	=249	=249	=249	=249	=249	=249	=249
4c\	.	4e\	.	4r	.	4r	.	12ee\L	.
.	.	.	.	.	.	.	.	12gg\	.
.	.	.	.	.	.	.	.	12ff#\J	.
4r	.	4r	.	12g\L	.	12b\L	.	12aa\L	.
.	.	.	.	12a\	.	12cc\	.	12gg\	.
.	.	.	.	12b\J	.	12dd\J	.	12ffn\J	.
4r	.	4r	.	4cc\	.	4ee\	.	12ee\L	.
.	.	.	.	.	.	.	.	12gg\	.
.	.	.	.	.	.	.	.	12ff#\J	.
12G\L	.	12B/L	.	4r	.	4r	.	12aa\L	.
12A\	.	12c/	.	.	.	.	.	12gg\	.
12B\J	.	12d/J	.	.	.	.	.	12ffn\J	.
=250	=250	=250	=250	=250	=250	=250	=250	=250	=250
4c\	.	4e\	.	4r	.	4r	.	12ee\L	.
.	.	.	.	.	.	.	.	12gg\	.
.	.	.	.	.	.	.	.	12ff#\J	.
4r	.	4r	.	12g\L	.	12b\L	.	12aa\L	.
.	.	.	.	12a\	.	12cc\	.	12gg\	.
.	.	.	.	12b\J	.	12dd\J	.	12ffn\J	.
4r	.	4r	.	4cc\	.	4ee\	.	12ee\L	.
.	.	.	.	.	.	.	.	12gg\	.
.	.	.	.	.	.	.	.	12ff#\J	.
12G\L	.	12B\L	.	4r	.	4r	.	12aa\L	.
12A\	.	12c\	.	.	.	.	.	12gg\	.
12B\J	.	12d\J	.	.	.	.	.	12ffn\J	.
=251	=251	=251	=251	=251	=251	=251	=251	=251	=251
4c'\	f	4e'\	f	4r	.	4r	.	4ee'\	f
2FF#'/	.	2C'/	.	2F#'/	f	2c'/ 2e-'/	f	2aa\	.
4GG'/	.	4C'/	.	4G'/	.	4c'/ 4e-'/	.	4g'/	.
=252	=252	=252	=252	=252	=252	=252	=252	=252	=252
1AA-	.	1C	f	(2A-/	.	4c'/ 4e-'/	.	1f#	.
.	.	.	.	.	.	2cc\	.	.	.
.	.	.	.	2c/	.	.	.	.	.
.	.	.	.	.	.	4c'/	.	.	.
=253	=253	=253	=253	=253	=253	=253	=253	=253	=253
4GG/	p	(2D/	p	4B/)	.	4B/	.	4fn/	.
4r	.	.	.	4d\	p	4f/	p	4b/	p
4AAn/	.	2C/	.	4r	.	4r	.	4r	.
4r	.	.	.	4c\	.	4en/	.	4cc\	.
=254	=254	=254	=254	=254	=254	=254	=254	=254	=254
4FF/	.	2D/	.	4r	.	4r	.	4r	.
4r	.	.	.	4c\	.	4d/	.	4a/	.
4GG/	.	2F/)	.	4r	.	4r	.	4r	.
4r	.	.	.	4B/	.	4d/	.	4g/	.
=255	=255	=255	=255	=255	=255	=255	=255	=255	=255
4C/	f	4E'/	f	4c'/	f	4e'/	f	4g'/	f
2FF#/	.	2C/	.	2F#/	.	2c'/ 2e-'/	.	2aa'\	.
4GG'/	.	4C'/	.	4G'/	.	4c'/ 4e-'/	.	4g'/	.
=256	=256	=256	=256	=256	=256	=256	=256	=256	=256
1AA-	.	1C	.	2A-/	.	4c'/ 4e-'/	.	1f#	.
.	.	.	.	.	.	2cc\	.	.	.
.	.	.	.	2c/	.	.	.	.	.
.	.	.	.	.	.	4cc\	.	.	.
=257	=257	=257	=257	=257	=257	=257	=257	=257	=257
[1GG	p	(2.D/	p	[1B	p	[1b	p	(2.fn/	p
.	.	4C#/	.	.	.	.	.	4e/	.
=258	=258	=258	=258	=258	=258	=258	=258	=258	=258
1GG]	.	4D/	.	1B]	.	1b]	.	4f/	.
.	.	4C#/	.	.	.	.	.	4e/	.
.	.	4D/	.	.	.	.	.	4f/	.
.	.	4E/)	.	.	.	.	.	4g/)	.
=259	=259	=259	=259	=259	=259	=259	=259	=259	=259
[1AA-	.	[1D	.	(2.B/	.	(2.b\	.	[1f	.
.	.	.	.	4A#/	.	4a#/	.	.	.
=260	=260	=260	=260	=260	=260	=260	=260	=260	=260
1AA-]	.	1D_	.	4B/	.	4b\	.	1f_	.
.	.	.	.	4c/	.	4cc\	.	.	.
.	.	.	.	4d\	.	4dd\	.	.	.
.	.	.	.	4c\)	.	4cc\)	.	.	.
=261	=261	=261	=261	=261	=261	=261	=261	=261	=261
[1GG	.	(2.D/]	.	[1B	.	[1b	.	2.f/]	.
.	.	4C#/	.	.	.	.	.	(4e/	.
=262	=262	=262	=262	=262	=262	=262	=262	=262	=262
1GG]	.	4D/	.	1B_	.	1b_	.	4f/	.
.	.	4C#/	.	.	.	.	.	4e/	.
.	.	4D/	.	.	.	.	.	4f/	.
.	.	4E/)	.	.	.	.	.	4g/)	.
=263	=263	=263	=263	=263	=263	=263	=263	=263	=263
[1GG	.	(4D/	.	4B/]	.	4b\]	.	(4f/	.
.	.	4C#/	.	(4e\	.	(4ee\	.	4e/	.
.	.	4D/	.	4d\	.	4dd\	.	4f/	.
.	.	4E/	.	4c\	.	4cc\	.	4g/	.
=264	=264	=264	=264	=264	=264	=264	=264	=264	=264
(4GG/]	.	4F/	.	4B/	.	4b\	.	4a/	.
4FF/	.	4G/	.	4A/	.	4a/	.	4b\	.
4EE/	.	4A/	.	4G/	.	4g/	.	4cc\	.
4DD/)	.	4B/	.	4F/)	.	4f/	.	4dd\	.
=265	=265	=265	=265	=265	=265	=265	=265	=265	=265
2.CC/ 2.C/	f	4c'/)	f	(2.E/	f	4e'/)	f	4ee'\)	f
.	.	4r	.	.	.	4ee'\	.	4r	.
.	.	[2G/	.	.	.	[2ee\	.	4r	.
(4BB/	.	.	.	4D/	.	.	.	4eee'\	.
=266	=266	=266	=266	=266	=266	=266	=266	=266	=266
4C/	.	2.G/]	.	4E/	.	4ee\]	.	[1eee	.
4BB/	.	.	.	4D/	.	12ee'\L	.	.	.
.	.	.	.	.	.	(12ee\	.	.	.
.	.	.	.	.	.	12dd\J	.	.	.
4C/	.	.	.	4E/	.	12cc'\L)	.	.	.
.	.	.	.	.	.	(12cc\	.	.	.
.	.	.	.	.	.	12b\J	.	.	.
4C#/)	.	4A/	.	4E/)	.	12a'/L)	.	.	.
.	.	.	.	.	.	(12a/	.	.	.
.	.	.	.	.	.	12g/J	.	.	.
=267	=267	=267	=267	=267	=267	=267	=267	=267	=267
(2.D/	.	4A/	.	(2.F/	.	4f'/)	.	(4eee\]	.
.	.	4r	.	.	.	4ff'\	.	4ddd\)	.
.	.	[2A/	.	.	.	[2ff\	.	4r	.
4C#/	.	.	.	4E/	.	.	.	4fff'\	.
=268	=268	=268	=268	=268	=268	=268	=268	=268	=268
4D/	.	2.A/]	.	4F/	.	4ff\]	.	[1fff	.
4C#/	.	.	.	4E/	.	12ff'\L	.	.	.
.	.	.	.	.	.	(12ff\	.	.	.
.	.	.	.	.	.	12ee\J	.	.	.
4D/	.	.	.	4F/	.	(12dd'\L)	.	.	.
.	.	.	.	.	.	12dd\	.	.	.
.	.	.	.	.	.	12cc\J	.	.	.
4D/)	.	4B/	.	4F/)	.	12b'\L)	.	.	.
.	.	.	.	.	.	(12b\	.	.	.
.	.	.	.	.	.	12a\J	.	.	.
=269	=269	=269	=269	=269	=269	=269	=269	=269	=269
(2.E\	.	4B/	.	(2.G/	.	4g'/)	.	(4fff\]	.
.	.	4r	.	.	.	4gg'\	.	4eee\)	.
.	.	[2c/	.	.	.	[2gg\	.	4r	.
4D#\	.	.	.	4F#/	.	.	.	4ggg'\	.
=270	=270	=270	=270	=270	=270	=270	=270	=270	=270
4E\	.	2.c/]	.	4G/	.	4gg\]	.	2.ggg\	.
4D#\	.	.	.	4F#/	.	12gg'\L	.	.	.
.	.	.	.	.	.	(12gg\	.	.	.
.	.	.	.	.	.	12ff\J	.	.	.
4E\	.	.	.	4G/	.	12ee'\L)	.	.	.
.	.	.	.	.	.	(12ee\	.	.	.
.	.	.	.	.	.	12dd\J	.	.	.
4E\)	.	[4c\	.	4G/)	.	12cc'\L)	.	4bb-\	.
.	.	.	.	.	.	(12cc\	.	.	.
.	.	.	.	.	.	12b-\J	.	.	.
=271	=271	=271	=271	=271	=271	=271	=271	=271	=271
(4F\	.	2.c\]	.	(4A/	.	4a'/)	.	4aa\	.
4E\	.	.	.	4G#/	.	4aa'\	.	12aa'\L	.
.	.	.	.	.	.	.	.	(12aa\	.
.	.	.	.	.	.	.	.	12ggn\J	.
4F\	.	.	.	4A/	.	2aa'\	.	12ff'\L)	.
.	.	.	.	.	.	.	.	(12ff\	.
.	.	.	.	.	.	.	.	12ee\J	.
4F#\)	.	[4d\	.	4A/)	.	.	.	12dd'\L)	.
.	.	.	.	.	.	.	.	(12dd\	.
.	.	.	.	.	.	.	.	12cc\J	.
=272	=272	=272	=272	=272	=272	=272	=272	=272	=272
(4G\	.	2.d\]	.	(4B/	.	4r	.	4b'\)	.
4F#\	.	.	.	4A#/	.	4b'\	.	12bb'\L	.
.	.	.	.	.	.	.	.	(12bb\	.
.	.	.	.	.	.	.	.	12aan\J	.
4G\	.	.	.	4B/	.	2b\	.	12gg'\L)	.
.	.	.	.	.	.	.	.	(12gg\	.
.	.	.	.	.	.	.	.	12ff\J	.
4G#\)	.	[4e\	.	4B/)	.	.	.	12ee'\L)	.
.	.	.	.	.	.	.	.	(12ee\	.
.	.	.	.	.	.	.	.	12dd\J	.
=273	=273	=273	=273	=273	=273	=273	=273	=273	=273
(4A\	ff	4e\]	.	4c'\	ff	4r	.	4cc'\)	.
4G#\	.	(4g#\	ff	4e'\	.	4cc'\	ff	12ccc'\L	ff
.	.	.	.	.	.	.	.	(12ccc\	.
.	.	.	.	.	.	.	.	12bb\J	.
4A\	.	4a\	.	4e'\	.	4cc'\	.	12ccc'\L)	.
.	.	.	.	.	.	.	.	(12ccc\	.
.	.	.	.	.	.	.	.	12bb\J	.
4B\	.	4b\	.	4e'\	.	4cc'\	.	12ccc'\L)	.
.	.	.	.	.	.	.	.	(12ccc\	.
.	.	.	.	.	.	.	.	12bb\J	.
=274	=274	=274	=274	=274	=274	=274	=274	=274	=274
4c\	.	4cc\	.	4e'\	.	4cc'\	.	12ccc'\L)	.
.	.	.	.	.	.	.	.	(12eee\	.
.	.	.	.	.	.	.	.	12ddd#\J	.
4A\	.	4a\	.	4c'\	.	4cc'\ 4ee'\	.	12eee'\L)	.
.	.	.	.	.	.	.	.	(12eee\	.
.	.	.	.	.	.	.	.	12ddd#\J	.
4E\	.	4e\	.	4c'\	.	4cc'\ 4ee'\	.	12eee'\L)	.
.	.	.	.	.	.	.	.	(12eee\	.
.	.	.	.	.	.	.	.	12ddd#\J	.
4F#\)	.	4f#\)	.	4c'\	.	4cc'\ 4ee'\	.	12eee'\L)	.
.	.	.	.	.	.	.	.	(12eee\	.
.	.	.	.	.	.	.	.	12ddd#\J	.
=275	=275	=275	=275	=275	=275	=275	=275	=275	=275
4Gn'\	.	4gn'\	.	4c'\	.	4cc'\ 4ee'\	.	8eee\L)	.
.	.	.	.	.	.	.	.	(8ddd\	.
4r	.	4r	.	4r	.	4r	.	8eee#\	.
.	.	.	.	.	.	.	.	8bb\J	.
2r	.	2r	.	2r	.	2r	.	8ccc\L	.
.	.	.	.	.	.	.	.	8bb\	.
.	.	.	.	.	.	.	.	8ccc\	.
.	.	.	.	.	.	.	.	8ff#\J	.
=276	=276	=276	=276	=276	=276	=276	=276	=276	=276
1r	.	1r	.	1r	.	1r	.	8gg\L	.
.	.	.	.	.	.	.	.	8ff#\	.
.	.	.	.	.	.	.	.	8gg\	.
.	.	.	.	.	.	.	.	8dd#\J	.
.	.	.	.	.	.	.	.	8ee\L	.
.	.	.	.	.	.	.	.	8dd#\	.
.	.	.	.	.	.	.	.	8ee\	.
.	.	.	.	.	.	.	.	8b\J	.
=277	=277	=277	=277	=277	=277	=277	=277	=277	=277
1r	.	1r	.	1r	.	1r	.	8cc\L	.
.	.	.	.	.	.	.	.	8b\	.
.	.	.	.	.	.	.	.	8cc\	.
.	.	.	.	.	.	.	.	8g\J	.
.	.	.	.	.	.	.	.	8a\L	.
.	.	.	.	.	.	.	.	8b\	.
.	.	.	.	.	.	.	.	8cc\	.
.	.	.	.	.	.	.	.	8dd\J	.
=278	=278	=278	=278	=278	=278	=278	=278	=278	=278
1r	.	1r	.	1r	.	1r	.	8ee\L	.
.	.	.	.	.	.	.	.	8ff\	.
.	.	.	.	.	.	.	.	8gg\	.
.	.	.	.	.	.	.	.	8aa\J	.
.	.	.	.	.	.	.	.	8bb\L	.
.	.	.	.	.	.	.	.	8ccc\	.
.	.	.	.	.	.	.	.	8ddd\	.
.	.	.	.	.	.	.	.	8ddd#\J)	.
=279	=279	=279	=279	=279	=279	=279	=279	=279	=279
2r	.	2r	.	2r	.	2r	.	4eee'\	.
.	.	.	.	.	.	.	.	4ff'\	.
4GG/	p	(2G/	p	(2c\	p	(2e/	p	4ff#'\	.
4GG/	.	.	.	.	.	.	.	4gg'\	.
=280	=280	=280	=280	=280	=280	=280	=280	=280	=280
4r	.	2c/	.	2e\	.	2g/	.	4gg#'\	.
4EE/	.	.	.	.	.	.	.	4aa'\	.
4r	.	2e\)	.	2g\)	.	2cc\)	.	4bb'\	.
4CC/	.	.	.	.	.	.	.	4ccc'\	.
=281	=281	=281	=281	=281	=281	=281	=281	=281	=281
4GG/	p	4f\	p	4g\	p	4b\	p	1ddd	p
4r	.	4r	.	4r	.	4r	.	.	.
2r	.	2r	.	2r	.	2r	.	.	.
=282	=282	=282	=282	=282	=282	=282	=282	=282	=282
1r	.	1r	.	1r	.	(12b\L	.	1dd	.
.	.	.	.	.	.	12cc\)	.	.	.
.	.	.	.	.	.	12a#'\J	.	.	.
.	.	.	.	.	.	(12b\L	.	.	.
.	.	.	.	.	.	12cc\)	.	.	.
.	.	.	.	.	.	12a#'\J	.	.	.
.	.	.	.	.	.	(12b\L	.	.	.
.	.	.	.	.	.	12cc\)	.	.	.
.	.	.	.	.	.	12a#'\J	.	.	.
.	.	.	.	.	.	(12b\L	.	.	.
.	.	.	.	.	.	12cc\)	.	.	.
.	.	.	.	.	.	12a#'\J	.	.	.
=283	=283	=283	=283	=283	=283	=283	=283	=283	=283
1r	.	1r	.	(12f\L	p	[1b	.	[1d	.
.	.	.	.	12g\)	.	.	.	.	.
.	.	.	.	12e'\J	.	.	.	.	.
.	.	.	.	(12f\L	.	.	.	.	.
.	.	.	.	12g\)	.	.	.	.	.
.	.	.	.	12e'\J	.	.	.	.	.
.	.	.	.	(12f\L	.	.	.	.	.
.	.	.	.	12g\)	.	.	.	.	.
.	.	.	.	12e'\J	.	.	.	.	.
.	.	.	.	(12f\L	.	.	.	.	.
.	.	.	.	12g\)	.	.	.	.	.
.	.	.	.	12e'\J	.	.	.	.	.
=284	=284	=284	=284	=284	=284	=284	=284	=284	=284
1r	.	(12G/L	p	[1f	.	1b_	.	1d]	.
.	.	12A/)	.	.	.	.	.	.	.
.	.	(12F#'/J	.	.	.	.	.	.	.
.	.	12G/L	.	.	.	.	.	.	.
.	.	12A/)	.	.	.	.	.	.	.
.	.	12F#'/J	.	.	.	.	.	.	.
.	.	(12G/L	.	.	.	.	.	.	.
.	.	12A/)	.	.	.	.	.	.	.
.	.	(12F#'/J	.	.	.	.	.	.	.
.	.	12G/L	.	.	.	.	.	.	.
.	.	12A/)	.	.	.	.	.	.	.
.	.	12F#'/J	.	.	.	.	.	.	.
=285	=285	=285	=285	=285	=285	=285	=285	=285	=285
(12GG/L	p	(12G/L	.	1f_	.	1b_	.	[1dd	.
12AA/)	.	12A/)	.	.	.	.	.	.	.
(12FF#'/J	.	(12F#'/J	.	.	.	.	.	.	.
12GG/L	.	12G/L	.	.	.	.	.	.	.
12AA/)	.	12A/)	.	.	.	.	.	.	.
(12FF#'/J	.	(12F#'/J	.	.	.	.	.	.	.
12GG/L	.	12G/L	.	.	.	.	.	.	.
12AA/)	.	12A/)	.	.	.	.	.	.	.
(12FF#'/J	.	12F#'/J	.	.	.	.	.	.	.
12GG/L	.	(12G/L	.	.	.	.	.	.	.
12AA/)	.	12A/)	.	.	.	.	.	.	.
12FF#'/J	.	12F#'/J	.	.	.	.	.	.	.
=286	=286	=286	=286	=286	=286	=286	=286	=286	=286
(12GG/L	.	(12G/L	.	1f;]	.	1b;]	.	1dd;]	.
12AA/)	.	12A/)	.	.	.	.	.	.	.
12FF#'/J	.	12F#'/J	.	.	.	.	.	.	.
(12GG/L	.	(12G/L	.	.	.	.	.	.	.
12AA/)	.	12A/)	.	.	.	.	.	.	.
12FF#'/J	.	12F#'/J	.	.	.	.	.	.	.
(12GG/L	.	(12G/L	.	.	.	.	.	.	.
12AA/)	.	12A/)	.	.	.	.	.	.	.
12FF#'/J	.	12F#'/J	.	.	.	.	.	.	.
4GG;/	.	4G;/	.	.	.	.	.	.	.
=287	=287	=287	=287	=287	=287	=287	=287	=287	=287
(2.C/	p	(8E/L	p	4e\	p	(2.cc\	p	4cc'\	.
.	.	8G/	.	.	.	.	.	.	.
.	.	8E/	.	4r	.	.	.	4gg'\	.
.	.	8G/J	.	.	.	.	.	.	.
.	.	8E/L	.	4r	.	.	.	[2gg\	.
.	.	8G/	.	.	.	.	.	.	.
4D/	.	8Fn/	.	(4B/	.	4b\	.	.	.
.	.	8G/J)	.	.	.	.	.	.	.
=288	=288	=288	=288	=288	=288	=288	=288	=288	=288
4C/	.	(8E/L	.	4c/	.	4cc\	.	1gg_	.
.	.	8G/	.	.	.	.	.	.	.
4D/	.	8F/	.	4B/	.	4b\	.	.	.
.	.	8G/J	.	.	.	.	.	.	.
4C/	.	8E/L	.	4c\	.	4cc\	.	.	.
.	.	8G/	.	.	.	.	.	.	.
4BB/)	.	8F/	.	4d\)	.	4dd\)	.	.	.
.	.	8G/J)	.	.	.	.	.	.	.
=289	=289	=289	=289	=289	=289	=289	=289	=289	=289
(2.C/	.	(8E/L	.	(2.c\	.	(2.cc\	.	4gg\]	.
.	.	8G/	.	.	.	.	.	.	.
.	.	8E/	.	.	.	.	.	4ccc'\	.
.	.	8G/J	.	.	.	.	.	.	.
.	.	8E/L	.	.	.	.	.	[2ccc\	.
.	.	8G/	.	.	.	.	.	.	.
4D/	.	8F/	.	4B/	.	4b\	.	.	.
.	.	8G/J)	.	.	.	.	.	.	.
=290	=290	=290	=290	=290	=290	=290	=290	=290	=290
4C/	.	(8E'/L	.	4c/	.	4cc\	.	1ccc_	.
.	.	8G/	.	.	.	.	.	.	.
4D/	.	8F/	.	4B/	.	4b\	.	.	.
.	.	8G/J	.	.	.	.	.	.	.
4C/	.	8E/L	.	4c\	.	4cc\	.	.	.
.	.	8G/	.	.	.	.	.	.	.
4C/)	.	8B/	.	4d\)	.	4dd\)	.	.	.
.	.	8G/J)	.	.	.	.	.	.	.
=291	=291	=291	=291	=291	=291	=291	=291	=291	=291
(2.C/	.	8c/L	.	(2.e\	.	(2.ee\	.	4ccc\]	.
.	.	(8G/	.	.	.	.	.	.	.
.	.	8c/	.	.	.	.	.	4eee'\	.
.	.	8G/J	.	.	.	.	.	.	.
.	.	8c/L	.	.	.	.	.	[2eee\	.
.	.	8G/	.	.	.	.	.	.	.
4C/	.	8B/	.	4d\	.	4dd\	.	.	.
.	.	8G/J)	.	.	.	.	.	.	.
=292	=292	=292	=292	=292	=292	=292	=292	=292	=292
4C/	.	(8c/L	.	4e\	.	4ee\	.	1eee_	.
.	.	8G/	.	.	.	.	.	.	.
4C/	.	8B/	.	4d\	.	4dd\	.	.	.
.	.	8G/J	.	.	.	.	.	.	.
4C/	.	8c/L	.	4e\	.	4ee\	.	.	.
.	.	8G/	.	.	.	.	.	.	.
4C/)	.	8d/	.	4f\)	.	4ff\)	.	.	.
.	.	(8G/J)	.	.	.	.	.	.	.
=293	=293	=293	=293	=293	=293	=293	=293	=293	=293
(2.C/	.	8c/L	.	(2.e\	.	(2.ee\	.	4eee\]	.
.	.	8G/	.	.	.	.	.	.	.
.	.	8c/	.	.	.	.	.	4ggg'\	.
.	.	8G/J	.	.	.	.	.	.	.
.	.	8c/L	.	.	.	.	.	[2ggg\	.
.	.	8G/	.	.	.	.	.	.	.
4BB/	.	8d/	.	4f\	.	4ff\	.	.	.
.	.	8G/J)	.	.	.	.	.	.	.
=294	=294	=294	=294	=294	=294	=294	=294	=294	=294
4C/	.	(8c/L	.	4e\	.	4ee\	.	1ggg_	.
.	.	8G/	.	.	.	.	.	.	.
4BB/	.	8d/	.	4f\	.	4ff\	.	.	.
.	.	8G/J	.	.	.	.	.	.	.
4C/	.	8c/L	.	4e\)	.	4ee\)	.	.	.
.	.	8G/	.	.	.	.	.	.	.
(4GG/)	.	8B/	.	(4d\	.	(4dd\	.	.	.
.	.	8G/J)	.	.	.	.	.	.	.
=295	=295	=295	=295	=295	=295	=295	=295	=295	=295
4C/)	.	(8c/L	.	4e'\)	.	4ee'\)	.	4ggg\]	.
.	.	8G/	.	.	.	.	.	.	.
(4BB/	.	8d/	.	(4f\	.	(4ff\	.	4ggg'\	.
.	.	8G/J	.	.	.	.	.	.	.
4C/)	.	8c/L	.	4e\)	.	4ee\)	.	[2ggg\	.
.	.	8G/	.	.	.	.	.	.	.
(4GG/	.	8B/	.	(4d\	.	(4dd\	.	.	.
.	.	8G/J)	.	.	.	.	.	.	.
=296	=296	=296	=296	=296	=296	=296	=296	=296	=296
4C/)	.	(8c/L	.	4e\)	.	4ee\)	.	4ggg\]	.
.	.	8G/	.	.	.	.	.	.	.
(4BB/	.	8d/	.	(4f\	.	(4ff\	.	4ggg'\	.
.	.	8G/J	.	.	.	.	.	.	.
4C/)	.	8c/L	.	4e\)	.	4ee\)	.	[2ggg\	.
.	.	8G/	.	.	.	.	.	.	.
(4GG/	.	8B/	.	(4d\	.	(4dd\	.	.	.
.	.	8G/J)	.	.	.	.	.	.	.
=297	=297	=297	=297	=297	=297	=297	=297	=297	=297
8C/L)	f	8c'\L	f	8e\L)	f	8ee\L	f	4ggg\]	.
8BB'/	.	8d'\	.	8f'\	.	8ff'\)	.	.	.
8C'/	.	8c'\	.	8e'\	.	8ee'\	.	4ggg'\	.
8GG'/J	.	8B\J	.	8d\J	.	8dd'\J	.	.	.
8C/L	.	8c'\L	.	8e'\L	.	8ee'\L	.	4ggg'\	.
8BB'/	.	8d'\	.	8f'\	.	8ff'\	.	.	.
8C/	.	8c'\	.	8e'\	.	8ee'\	.	4ggg'\	.
8GG'/J	.	8B'\J	.	8d\J	.	8dd'\J	.	.	.
=298	=298	=298	=298	=298	=298	=298	=298	=298	=298
8C'/L	.	8c'\L	.	8e'\L	.	8ee'\L	.	4ggg'\	.
8BB'/	.	8d'\	.	8f'\	.	8ff'\	.	.	.
8C'/	.	8c'\	.	8e'\	.	8ee'\	.	4ggg'\	.
8GG'/J	.	8B'\J	.	8d'\J	.	8dd\J	.	.	.
8C'/L	.	8c'\L	.	8e'\L	.	8ee'\L	.	4ggg'\	.
8GG'/	.	8d'\	.	8f'\	.	8ff'\	.	.	.
8C'/	.	8c'\	.	8e'\	.	8ee'\	.	4ggg'\	.
8GG'/J	.	8d'\J	.	8f'\J	.	8ff'\J	.	.	.
=299	=299	=299	=299	=299	=299	=299	=299	=299	=299
4C/	f	4c\	f	4e\	f	4ee\	f	12ggg'\L	f
.	.	.	.	.	.	.	.	12ggg'\	.
.	.	.	.	.	.	.	.	12fff'\J	.
4r	.	4r	.	4r	.	4r	.	12eee'\L	.
.	.	.	.	.	.	.	.	12ddd'\	.
.	.	.	.	.	.	.	.	12ccc'\J	.
2r	.	2r	.	2r	.	2r	.	12bb'\L	.
.	.	.	.	.	.	.	.	12aa'\	.
.	.	.	.	.	.	.	.	12gg'\J	.
.	.	.	.	.	.	.	.	12ff'\L	.
.	.	.	.	.	.	.	.	12ee'\	.
.	.	.	.	.	.	.	.	12dd'\J	.
=300	=300	=300	=300	=300	=300	=300	=300	=300	=300
4C/	f	4c\	f	4c\	f	4g\ 4cc\ 4ee\	f	12cc'\L	.
.	.	.	.	.	.	.	.	12gg'\	.
.	.	.	.	.	.	.	.	12ff'\J	.
4r	.	4r	.	4r	.	4r	.	12ee'\L	.
.	.	.	.	.	.	.	.	12dd'\	.
.	.	.	.	.	.	.	.	12cc'\J	.
2r	.	2r	.	2r	.	2r	.	12b'/L	.
.	.	.	.	.	.	.	.	12a'/	.
.	.	.	.	.	.	.	.	12g'/J	.
.	.	.	.	.	.	.	.	12f'/L	.
.	.	.	.	.	.	.	.	12e'/	.
.	.	.	.	.	.	.	.	12d'/J	.
=301	=301	=301	=301	=301	=301	=301	=301	=301	=301
12C'\L	.	(12c'\L	.	12c'\L	.	12G'/ 12e'/ 12cc'/L	.	4c/	.
12G'\	.	12g'\	.	12g'\	.	12gg'/	.	.	.
12F'\J	.	12f'\J)	.	12f\J	.	12ff'/J	.	.	.
12E'\L	.	12e'\L	.	12e'\L	.	12ee'\L	.	4r	.
12D'\	.	12d'\	.	12d'\	.	12dd'\	.	.	.
12C'\J	.	12c'\J	.	12c'\J	.	12cc'\J	.	.	.
12BB'/L	.	12B'/L	.	12B'/L	.	12b'/L	.	2r	.
12AA'/	.	12A'/	.	12A'/	.	12a'/	.	.	.
12GG'/J	.	12G'/J	.	12G'/J	.	12g'/J	.	.	.
12FF'/L	.	12F'/L	.	12F'/L	.	12f'/L	.	.	.
12EE'/	.	12E'/	.	12E'/	.	12e'/	.	.	.
12DD'/J	.	12D'/J	.	12D'/J	.	12d'/J	.	.	.
=302	=302	=302	=302	=302	=302	=302	=302	=302	=302
4CC'/	ff	4C'/	ff	4C'/	.	4c'/	ff	4g'\ 4ee'\ 4ccc'\	ff
4r	.	4r	.	4r	.	4r	.	4r	.
4GG'/	.	4G'/	.	4G'/	.	4G'/ 4d'/ 4b'/	.	4d'\ 4b'\ 4gg'\	.
4r	.	4r	.	4r	.	4r	.	4r	.
=303	=303	=303	=303	=303	=303	=303	=303	=303	=303
4CC'/ 4C'/	.	4C'/ 4c'/	.	4C'/ 4c'/	.	4c'/ 4e'/ 4cc'/	.	4c'/ 4e'/ 4cc'/ 4ee'/	.
4r	.	4r	.	4r	.	4r	.	4r	.
2r	.	2r	.	2r	.	2r	.	2r	.
==	==	==	==	==	==	==	==	==	==
*-	*-	*-	*-	*-	*-	*-	*-	*-	*-
!!!ONB: Scanned with SharpEye into MusicXML by Don Anthony 2006///
!!!ONB: Converted to Humdrum by Craig Sapp 2006/07/24/
